!!!!SEGMENT: pl-cz--iii-693--003_volckmer-augustin--litaniae-lauretanae-a-virgo-prudentissima.krn
!!!cenid: 18xx:1128
!!!COM: Volckmer, Augustin
!!!COM-rismID: pe30020656
!!!CDT: 1755-~1820
!!!CNT:
!!!OPR: Litaniae Lauretanae A
!!!OTL: Virgo prudentissima
!!!OMV: 003
!!!PDT:
!!!AGN: Sacred; Mass
!!!SMS-siglum: PL-CZ
!!!SMS-shelfmark: III-693
!!!SMS-shelfwork: 001-003 M
!!!SMS-variant:
!!!SMS-altvar:
!!!NIFC-rismSourceID: 300001388
!!!NIFC-islandoraID: pl-cz:40462
!!!URL-pdf-islandora: https://repozytorium.nifc.pl/islandora/object/pl-cz%3A40462/datastream/PDF/view
!!!URL-scan:
!!!ONB-nifc: UWAGA: części Litanii: Kyrie, Mater christi, Virgo prudentissima, Rosa mystica, Salus infirmorum, Regina angelorum, Agnus Dei, Miserere nobis.
!!!AIN: 1 alto 1 bass 2 cor 3 oboe 1 organ 1 soprn 1 tenor 1 timpa 2 viola 2 violn
!!!key: G
**kern	**fba	**dynam	**kern	**dynam	**kern	**kern	**dynam	**kern	**dynam	**kern	**text	**text	**kern	**text	**text	**kern	**text	**text	**kern	**text	**text	**kern	**kern	**dynam	**kern	**dynam	**kern	**dynam	**kern	**dynam	**kern
*	*	*	*group4	*	*group4	*group4	*	*group4	*	*group3	*	*	*group3	*	*	*group3	*	*	*group3	*	*	*	*group2	*	*group2	*	*group1	*	*group1	*	*group1
*part15	*part15	*part15	*part14	*part14	*part13	*part12	*part12	*part11	*part11	*part10	*part10	*part10	*part9	*part9	*part9	*part8	*part8	*part8	*part7	*part7	*part7	*part6	*part5	*part5	*part4	*part4	*part3	*part3	*part2	*part2	*part1
*staff15	*	*	*staff14	*	*staff13	*staff12	*	*staff11	*	*staff10	*staff10	*staff10	*staff9	*staff9	*staff9	*staff8	*staff8	*staff8	*staff7	*staff7	*staff7	*staff6	*staff5	*	*staff4	*	*staff3	*	*staff2	*	*staff1
*I"Organo	*	*	*I"Viola obl:	*	*I"Viola Solo	*I"Violino Secondo	*	*I"Violino Primo	*	*I"Baſso	*	*	*I"Tenore	*	*	*I"Alto	*	*	*I"Canto	*	*	*I"Tympano ex D.	*I"Cornu Secondo in A.	*	*I"Cornu Primo ex Adur	*	*I"Oboe Secondo	*	*I"Oboe Primo	*	*I"Oboe Primo Solo
*I'org	*	*	*I'vla	*	*I'vla solo	*I'vl 2	*	*I'vl 1	*	*I'B	*	*	*I'T	*	*	*I'A	*	*	*I'S	*	*	*I'timp	*I'cor 2 in G	*	*I'cor 1 in G	*	*I'ob 2	*	*I'ob 1	*	*I'ob 1 solo
*Iorgan	*	*	*Iviola	*	*Iviola	*Ivioln	*	*Ivioln	*	*Ibass	*	*	*Itenor	*	*	*Ialto	*	*	*Isoprn	*	*	*Itimpa	*Icor	*	*Icor	*	*Ioboe	*	*Ioboe	*	*Ioboe
*ICklav	*	*	*ICstr	*	*ICstr	*ICstr	*	*ICstr	*	*ICvox	*	*	*ICvox	*	*	*ICvox	*	*	*ICvox	*	*	*ICidio	*ICbras	*	*ICbras	*	*ICww	*	*ICww	*	*ICww
*IGcont	*	*	*	*	*	*	*	*	*	*IGcoro	*	*	*IGcoro	*	*	*IGcoro	*	*	*IGcoro	*	*	*	*	*	*	*	*	*	*	*	*
*clefF4	*	*	*clefC3	*	*clefC3	*clefG2	*	*clefG2	*	*clefF4	*	*	*clefC4	*	*	*clefC3	*	*	*clefC1	*	*	*clefF4	*clefG2	*	*clefG2	*	*clefG2	*	*clefG2	*	*clefG2
*	*	*	*	*	*	*	*	*	*	*	*	*	*	*	*	*	*	*	*	*	*	*	*ITrd3c5	*	*ITrd3c5	*	*	*	*	*	*
*k[f#]	*	*	*k[f#]	*	*k[f#]	*k[f#]	*	*k[f#]	*	*k[f#]	*	*	*k[f#]	*	*	*k[f#]	*	*	*k[f#]	*	*	*k[f#]	*k[f#]	*	*k[f#]	*	*k[f#]	*	*k[f#]	*	*k[f#]
*G:	*	*	*G:	*	*G:	*G:	*	*G:	*	*G:	*	*	*G:	*	*	*G:	*	*	*G:	*	*	*G:	*G:	*	*G:	*	*G:	*	*G:	*	*G:
*M2/4	*	*	*M2/4	*	*M2/4	*M2/4	*	*M2/4	*	*M2/4	*	*	*M2/4	*	*	*M2/4	*	*	*M2/4	*	*	*M2/4	*M2/4	*	*M2/4	*	*M2/4	*	*M2/4	*	*M2/4
=1	=1	=1	=1	=1	=1	=1	=1	=1	=1	=1	=1	=1	=1	=1	=1	=1	=1	=1	=1	=1	=1	=1	=1	=1	=1	=1	=1	=1	=1	=1	=1
*	*	*	*	*	*	*	*	*	*below	*	*	*	*	*	*	*	*	*	*	*	*	*	*	*	*	*	*	*	*	*	*
!LO:TX:t=P:problem=mixed beam	!	!	!LO:TX:t=P:problem=mixed beam	!	!	!	!	!	!	!LO:TX:a:t=Moderato	!	!	!	!	!	!	!	!	!	!	!	!LO:TX:a:t=Tacet	!LO:TX:a:rj:t=in G	!	!LO:TX:a:rj:t=in G	!	!	!	!	!	!
!LO:TX:a:rj:t=Moderato	!	!	!LO:TX:a:t=Moderato	!	!	!LO:TX:a:t=Moderato	!	!LO:TX:a:t=Moderato	!	!	!	!	!LO:TX:a:rj:t=Moderato	!	!	!LO:TX:a:rj:t=Moderato	!	!	!LO:TX:a:t=Moderato	!	!	!	!LO:TX:a:t=Moderato	!	!LO:TX:a:t=Moderato	!	!LO:TX:a:t=Moderato	!	!LO:TX:a:t=Moderato	!	!
!LO:TX:b:rj:t=Credo:color=red	!	!	!LO:TX:a:rj:t=Credo:color=red	!	!LO:TX:t=P:problem=instrument występuje tylko w części Benedictus	!LO:TX:a:rj:t=Credo:color=red	!	!LO:TX:a:rj:t=Credo:color=red	!LO:DY:rj:t=for	!	!	!	!	!	!	!	!	!	!	!	!	!	!LO:TX:b:t=Credo.:color=red	!	!LO:TX:b:t=Credo.:color=red	!	!LO:TX:a:rj:t=Credo.:color=red	!	!LO:TX:a:rj:t=Credo.:color=red	!	!LO:TX:t=P:problem=instrument występuje tylko w częściach Rosa i Salus
8G\L	5 3	.	8g\L	.	2ryy	8b\L	.	8dd\L	f	8G\	Vir-	De-	8d\	Vir-	De-	8b\	Vir-	De-	8dd\	Vir-	De-	2ryy	4G/	.	4g\	.	8b/L	.	8dd\L	.	2ryy
8GG/	3 1	.	8G/	.	.	8g\J	.	8b\J	.	8GG/	-go	.	8d\	-go	.	8g\	-go	.	8b\	-go	.	.	.	.	.	.	8g/J	.	8b\J	.	.
!	!	!	!	!	!	!	!	!LO:TX:a:t=Credo	!	!	!	!	!	!	!	!	!	!	!	!	!	!	!	!	!	!	!	!	!	!	!
8BB/	6 4	.	8B/	.	.	8ee\L	.	(8gg\L	.	8BB/	pru-	.	8d\	pru-	.	8ee\	pru-	.	8gg\	pru-	.	.	4r	.	4r	.	(8ee\L	.	8gg\L	.	.
8C/J	4 2	.	8c/J	.	.	(16dd\L	.	16ff#\L	.	8C/	-den-	.	8e\	-den-	-cus	16dd\LL	-den-	cus	16ff#\LL	-den-	cus	.	.	.	.	.	16dd\L	.	(16ff#\L	.	.
.	3 1	.	.	.	.	16cc\JJ)	.	16ee\JJ)	.	.	.	.	.	.	.	16cc\JJ	.	.	16ee\JJ	.	.	.	.	.	.	.	16cc\JJ)	.	16ee\JJ)	.	.
=2	=2	=2	=2	=2	=2	=2	=2	=2	=2	=2	=2	=2	=2	=2	=2	=2	=2	=2	=2	=2	=2	=2	=2	=2	=2	=2	=2	=2	=2	=2	=2
!LO:TX:t=P:problem=mixed beam	!	!	!LO:TX:t=P:problem=mixed beam	!	!	!	!	!	!	!	!	!	!	!	!	!	!	!	!	!	!	!	!	!	!	!	!	!	!	!	!
8D\L	8 6	.	8d\L	.	2ryy	16cc\LL	.	(16ee\LL	.	8D\	-tiſ-	-cus	8d\	-tiſ-	.	16cc\LL	-ti-	Cle-	16ee\LL	-tiſ-	.	2ryy	8d/L	.	8d/L	.	16cc/LL	.	(16ee\LL	.	2ryy
.	.	.	.	.	.	16b\	.	16dd\)	.	.	.	.	.	.	.	16b\JJ	.	.	16dd\JJ	.	.	.	.	.	.	.	16b/	.	16dd\)	.	.
8DD/J	7 5	.	8D/J	.	.	16b\	.	(16dd\	.	8D\	-si-	Cle-	8d\	-si-	Cle-	16b\LL	-ſi-	-ri	16dd\LL	-si-	cle-	.	8d/J	.	8d/J	.	16b/	.	(16dd\	.	.
.	.	.	.	.	.	16a\JJ	.	16cc\JJ)	.	.	.	.	.	.	.	16a\JJ	.	.	16cc\JJ	.	.	.	.	.	.	.	16a/JJ	.	16cc\JJ)	.	.
!	!	!	!	!	!	!	!	!	!	!	!	!	!	!	!	!LO:TX:t=P:problem=niepotrzebna pauza	!	!	!	!	!	!	!	!	!	!	!	!	!	!	!
.	.	.	.	.	.	8qqa/	.	8qqcc/	.	.	.	.	.	.	.	8qqa/	.	.	8qqcc/	.	.	.	.	.	.	.	8qqa/	.	8qqcc/	.	.
!	!	!	!	!	!	!	!	!	!	!	!	!	!	!	!	!LO:N:vis=2	!	!	!	!	!	!	!	!	!	!	!	!	!	!	!
4GG/	3	.	4G/	.	.	4g/	.	4b\	.	4GG/	-ma.	-ri	4d\	-ma	-ri	8r	-ma	.	4b\	-ma	-ri	.	4G/	.	4d/	.	4g/	.	4b\	.	.
!	!	!	!	!	!	!	!	!	!	!	!	!	!	!	!	!LO:N:vis=4	!	!	!	!	!	!	!	!	!	!	!	!	!	!	!
.	.	.	.	.	.	.	.	.	.	.	.	.	.	.	.	8g\	.	.	.	.	.	.	.	.	.	.	.	.	.	.	.
=3	=3	=3	=3	=3	=3	=3	=3	=3	=3	=3	=3	=3	=3	=3	=3	=3	=3	=3	=3	=3	=3	=3	=3	=3	=3	=3	=3	=3	=3	=3	=3
!	!	!	!	!	!	!	!	!LO:TX:a:t=dolce	!LO:DY:t=po	!	!	!	!	!	!	!	!	!	!	!	!	!	!	!	!	!	!	!	!	!	!
1r	.	.	8r	.	2ryy	16G/LL	.	8b/L	p	1r	.	.	1r	.	.	1r	.	.	1r	.	.	2ryy	4G/	.	4g\	.	1r	.	1r	.	2ryy
.	.	.	.	.	.	(16d/	.	.	.	.	.	.	.	.	.	.	.	.	.	.	.	.	.	.	.	.	.	.	.	.	.
.	.	.	8G/L	.	.	16B/	.	8g/	.	.	.	.	.	.	.	.	.	.	.	.	.	.	.	.	.	.	.	.	.	.	.
.	.	.	.	.	.	16d/JJ)	.	.	.	.	.	.	.	.	.	.	.	.	.	.	.	.	.	.	.	.	.	.	.	.	.
.	.	.	8A/	.	.	(16c/LL	.	8f#/	.	.	.	.	.	.	.	.	.	.	.	.	.	.	8d/L	.	8d/L	.	.	.	.	.	.
.	.	.	.	.	.	16d/	.	.	.	.	.	.	.	.	.	.	.	.	.	.	.	.	.	.	.	.	.	.	.	.	.
.	.	.	8G/J	.	.	16B/)	.	8g/J	.	.	.	.	.	.	.	.	.	.	.	.	.	.	8G/J	.	8G/J	.	.	.	.	.	.
.	.	.	.	.	.	16d/JJ	.	.	.	.	.	.	.	.	.	.	.	.	.	.	.	.	.	.	.	.	.	.	.	.	.
=4	=4	=4	=4	=4	=4	=4	=4	=4	=4	=4	=4	=4	=4	=4	=4	=4	=4	=4	=4	=4	=4	=4	=4	=4	=4	=4	=4	=4	=4	=4	=4
!	!	!	!LO:TX:t=P:problem=mixed beam	!	!	!	!	!	!	!	!	!	!	!	!	!	!	!	!	!	!	!	!	!	!	!	!	!	!	!	!
.	.	.	8F#/L	.	2ryy	16A/LL	.	32dd\KLL	.	.	.	.	.	.	.	.	.	.	.	.	.	2ryy	8r	.	8r	.	.	.	.	.	2ryy
.	.	.	.	.	.	.	.	16.cc\	.	.	.	.	.	.	.	.	.	.	.	.	.	.	.	.	.	.	.	.	.	.	.
.	.	.	.	.	.	16d/	.	.	.	.	.	.	.	.	.	.	.	.	.	.	.	.	.	.	.	.	.	.	.	.	.
.	.	.	8G/	.	.	16G/	.	32cc\K	.	.	.	.	.	.	.	.	.	.	.	.	.	.	8g\	.	8g\	.	.	.	.	.	.
.	.	.	.	.	.	.	.	16.b\JJ	.	.	.	.	.	.	.	.	.	.	.	.	.	.	.	.	.	.	.	.	.	.	.
.	.	.	.	.	.	16d/JJ	.	.	.	.	.	.	.	.	.	.	.	.	.	.	.	.	.	.	.	.	.	.	.	.	.
.	.	.	8d\	.	.	16G/LL	.	(8b\L	.	.	.	.	.	.	.	.	.	.	.	.	.	.	8d/L	.	8d/L	.	.	.	.	.	.
.	.	.	.	.	.	16d/	.	.	.	.	.	.	.	.	.	.	.	.	.	.	.	.	.	.	.	.	.	.	.	.	.
.	.	.	8D/J	.	.	16c#X/	.	8a\J)	.	.	.	.	.	.	.	.	.	.	.	.	.	.	8D/J	.	8D/J	.	.	.	.	.	.
.	.	.	.	.	.	16d/JJ	.	.	.	.	.	.	.	.	.	.	.	.	.	.	.	.	.	.	.	.	.	.	.	.	.
=5	=5	=5	=5	=5	=5	=5	=5	=5	=5	=5	=5	=5	=5	=5	=5	=5	=5	=5	=5	=5	=5	=5	=5	=5	=5	=5	=5	=5	=5	=5	=5
*	*	*	*	*	*	*	*	*	*	*	*	*ij	*	*	*ij	*	*	*ij	*	*	*ij	*	*	*	*	*	*	*	*	*	*
!LO:TX:t=P:problem=mixed beam	!	!	!LO:TX:t=P:problem=mixed beam	!	!	!	!	!	!LO:DY:t=for	!	!	!	!	!	!	!	!	!	!	!	!	!	!	!	!	!	!	!	!	!	!
8G\L	.	.	8g\L	.	2ryy	8b\L	.	8dd\L	f	8G\	Vir-	De-	8d\	Vir-	De-	8b\	Vir-	De-	8dd\	Vir-	de-	2ryy	4G/	.	4d/	.	8b\L	.	8dd\L	.	2ryy
8GG/	.	.	8G/	.	.	8g\J	.	8b\J	.	8GG/	-go	.	8d\	-go	.	8g\	-go	.	8b\	-go	.	.	.	.	.	.	8g\J	.	8b\J	.	.
8BB/	.	.	8B/	.	.	8ee\L	.	8gg\L	.	8BB/	Ve-	.	8d\	ve-	.	8ee\	ve-	.	8gg\	ve-	.	.	4r	.	4r	.	8ee\L	.	8gg\L	.	.
8C/J	.	.	8c/J	.	.	16dd\L	.	16ff#\L	.	8C/	-ne-	cus	8e\	-ne-	cus	16dd\LL	-ne-	-cus	16ff#\LL	-ne-	cus	.	.	.	.	.	16dd\L	.	(16ff#\L	.	.
.	.	.	.	.	.	16cc\JJ	.	16ee\JJ	.	.	.	.	.	.	.	16cc\JJ	.	.	16ee\JJ	.	.	.	.	.	.	.	16cc\JJ	.	16ee\JJ)	.	.
=6	=6	=6	=6	=6	=6	=6	=6	=6	=6	=6	=6	=6	=6	=6	=6	=6	=6	=6	=6	=6	=6	=6	=6	=6	=6	=6	=6	=6	=6	=6	=6
!LO:TX:t=P:problem=mixed beam	!	!	!LO:TX:t=P:problem=mixed beam	!	!	!	!	!	!	!	!	!	!	!	!	!	!	!	!	!	!	!	!	!	!	!	!	!	!	!	!
8D\L	.	.	8d\L	.	2ryy	16cc\LL	.	(16ee\LL	.	4D\	-ran-	Cle-	4d\	-ran-	Cle-	16cc\LL	-ran-	Cle-	16ee\LL	-ran-	.	2ryy	8d/L	.	8a\L	.	16cc/LL	.	(16ee\LL	.	2ryy
.	.	.	.	.	.	16b\	.	16dd\)	.	.	.	.	.	.	.	16b\	.	.	16dd\	.	.	.	.	.	.	.	16b/	.	16dd\)	.	.
8DD/J	.	.	8D/J	.	.	16b\	.	(16dd\	.	.	.	.	.	.	.	16b\	-da	-ri	16dd\	.	cle-	.	8d/J	.	8a\J	.	16b/	.	(16dd\	.	.
*	*	*	*	*	*	*	*	*	*	*	*	*	*	*	*	*	*	*Xij	*	*	*	*	*	*	*	*	*	*	*	*	*
.	.	.	.	.	.	16a\JJ	.	16cc\JJ)	.	.	.	.	.	.	.	16a\JJ	.	.	16cc\JJ	.	.	.	.	.	.	.	16a/JJ	.	16cc\JJ)	.	.
!	!	!	!	!	!	!	!	!	!	!	!	!	!	!	!	!LO:TX:t=P:problem=niepotrzebna pauza	!	!	!	!	!	!	!	!	!	!	!	!	!	!	!
.	.	.	.	.	.	8qqa/	.	8qqcc/	.	.	.	.	.	.	.	8qqa/	.	.	8qqcc/	.	.	.	.	.	.	.	8qqa/	.	8qqcc/	.	.
!	!	!	!	!	!	!	!	!	!	!	!	!	!	!	!	!LO:N:vis=2	!	!	!	!	!	!	!	!	!	!	!	!	!	!	!
4GG/	.	.	4G/	.	.	4g/	.	4b\	.	4GG/	-da	-ri	4d\	-da	-ri	8r	.	.	4b\	-da	-ri	.	4g\	.	4b\	.	4g/	.	4b\	.	.
!	!	!	!	!	!	!	!	!	!	!	!	!	!	!	!	!LO:N:vis=4	!	!	!	!	!	!	!	!	!	!	!	!	!	!	!
.	.	.	.	.	.	.	.	.	.	.	.	.	.	.	.	8g\	.	.	.	.	.	.	.	.	.	.	.	.	.	.	.
*	*	*	*	*	*	*	*	*	*	*	*	*Xij	*	*	*Xij	*	*	*	*	*	*Xij	*	*	*	*	*	*	*	*	*	*
!	!	!	!	!	!	!LO:LB:g=original	!	!	!	!	!	!	!LO:LB:g=original	!	!	!	!	!	!LO:LB:g=original	!	!	!	!	!	!	!	!	!	!	!	!
=7	=7	=7	=7	=7	=7	=7	=7	=7	=7	=7	=7	=7	=7	=7	=7	=7	=7	=7	=7	=7	=7	=7	=7	=7	=7	=7	=7	=7	=7	=7	=7
*	*	*	*	*	*	*	*	*	*	*	*	*	*	*	*	*	*	*	*	*	*	*	*	*	*2\right	*	*	*	*	*	*
!	!	!	!	!	!	!LO:TUP:b:problem=klamra łukowa, kropka zamiast numeru	!	!LO:TUP:a:problem=klamra łukowa, kropka zamiast numeru	!	!	!	!	!	!	!	!	!	!	!	!	!	!	!	!	!	!	!	!	!	!	!
8r	.	.	8r	.	2ryy	24e/LL	.	24cc#X\LL	.	8r	.	.	8r	.	.	8r	.	.	8r	.	.	2ryy	4a\	.	2a\	.	8e/	.	8cc#X\	.	2ryy
.	.	.	.	.	.	24a/	.	24a\	.	.	.	.	.	.	.	.	.	.	.	.	.	.	.	.	.	.	.	.	.	.	.
.	.	.	.	.	.	24a/JJ	.	24a\JJ	.	.	.	.	.	.	.	.	.	.	.	.	.	.	.	.	.	.	.	.	.	.	.
!	!	!	!	!	!	!LO:TUP:b:problem=klamra łukowa, kropka zamiast numeru	!	!LO:TUP:a:problem=klamra łukowa, kropka zamiast numeru	!	!	!	!	!	!	!	!	!	!	!	!	!	!	!	!	!	!	!	!	!	!	!
8A\	#	.	8cc#X 8e 8A/	.	.	24a/LL	.	24a\LL	.	8A\	Vir-	no-	8A\	Vir-	no-	8e\	vir-	no-	8cc#X\	Vir-	no-	.	.	.	.	.	8r	.	8r	.	.
.	.	.	.	.	.	24a/	.	24a\	.	.	.	.	.	.	.	.	.	.	.	.	.	.	.	.	.	.	.	.	.	.	.
.	.	.	.	.	.	24a/JJ	.	24a\JJ	.	.	.	.	.	.	.	.	.	.	.	.	.	.	.	.	.	.	.	.	.	.	.
!	!	!	!	!	!	!LO:TUP:b:problem=klamra łukowa, kropka zamiast numeru	!	!LO:TUP:a:problem=klamra łukowa, kropka zamiast numeru	!	!	!	!	!	!	!	!	!	!	!	!	!	!	!	!	!	!	!	!	!	!	!
8r	.	.	8r	.	.	24f#/LL	.	24dd\LL	.	8r	.	.	8r	.	.	8r	.	.	8r	.	.	.	4d/	.	.	.	8f#/	.	8dd\	.	.
.	.	.	.	.	.	24a/	.	24a\	.	.	.	.	.	.	.	.	.	.	.	.	.	.	.	.	.	.	.	.	.	.	.
.	.	.	.	.	.	24a/JJ	.	24a\JJ	.	.	.	.	.	.	.	.	.	.	.	.	.	.	.	.	.	.	.	.	.	.	.
!	!	!	!	!	!	!LO:TUP:b:problem=klamra łukowa, kropka zamiast numeru	!	!LO:TUP:a:problem=klamra łukowa, kropka zamiast numeru	!	!	!	!	!	!	!	!	!	!	!	!	!	!	!	!	!	!	!	!	!	!	!
8D\	3	.	8dd 8f# 8A/	.	.	24a/LL	.	24a\LL	.	8F#\	-go	-bi-	8A\	-go	-bi-	8f#\	-go	-bi-	8dd\	-go	-bi-	.	.	.	.	.	8r	.	8r	.	.
.	.	.	.	.	.	24a/	.	24a\	.	.	.	.	.	.	.	.	.	.	.	.	.	.	.	.	.	.	.	.	.	.	.
.	.	.	.	.	.	24a/JJ	.	24a\JJ	.	.	.	.	.	.	.	.	.	.	.	.	.	.	.	.	.	.	.	.	.	.	.
!	!	!	!	!	!	!	!	!LO:LB:g=original	!	!LO:LB:g=original	!	!	!	!	!	!	!	!	!	!	!	!	!	!	!	!	!	!	!	!	!
=8	=8	=8	=8	=8	=8	=8	=8	=8	=8	=8	=8	=8	=8	=8	=8	=8	=8	=8	=8	=8	=8	=8	=8	=8	=8	=8	=8	=8	=8	=8	=8
*	*	*	*	*	*	*	*	*Xtuplet	*	*	*	*	*	*	*	*	*	*	*	*	*	*	*	*	*	*	*	*	*	*	*
!	!	!	!	!	!	!LO:TUP:a:problem=klamra łukowa, kropka zamiast numeru	!	!LO:TX:t=P:problem=mixed beam	!	!	!	!	!	!	!	!	!	!	!	!	!	!	!	!	!	!	!	!	!	!	!
8r	.	.	8r	.	2ryy	24ee\LL	.	24gg\LL	.	8r	.	.	8r	.	.	8r	.	.	8r	.	.	2ryy	4a\	.	2a\	.	8ee\	.	8gg\	.	2ryy
.	.	.	.	.	.	24a\	.	24a/	.	.	.	.	.	.	.	.	.	.	.	.	.	.	.	.	.	.	.	.	.	.	.
.	.	.	.	.	.	24a\JJ	.	24a/JJ	.	.	.	.	.	.	.	.	.	.	.	.	.	.	.	.	.	.	.	.	.	.	.
!	!	!	!	!	!	!LO:TUP:a:problem=klamra łukowa, kropka zamiast numeru	!	!	!	!	!	!	!	!	!	!	!	!	!	!	!	!	!	!	!	!	!	!	!	!	!
8AA/	7 5	.	8ee 8g 8A/	.	.	24a\LL	.	24a/LL	.	8C#X/	Vir-	-lis-	8e\	Vir-	-liſ-	8a\	vir-	-lis-	8gg\	Vir-	-lis-	.	.	.	.	.	8r	.	8r	.	.
.	.	.	.	.	.	24a\	.	24a/	.	.	.	.	.	.	.	.	.	.	.	.	.	.	.	.	.	.	.	.	.	.	.
.	.	.	.	.	.	24a\JJ	.	24a/JJ	.	.	.	.	.	.	.	.	.	.	.	.	.	.	.	.	.	.	.	.	.	.	.
!	!	!	!	!	!	!LO:TUP:a:problem=klamra łukowa, kropka zamiast numeru	!	!	!	!	!	!	!	!	!	!	!	!	!	!	!	!	!	!	!	!	!	!	!	!	!
8r	.	.	8r	.	.	24dd\LL	.	24ff#\LL	.	8r	.	.	8r	.	.	8r	.	.	8r	.	.	.	4d/	.	.	.	8dd\	.	8ff#\	.	.
.	.	.	.	.	.	24a\	.	24a\	.	.	.	.	.	.	.	.	.	.	.	.	.	.	.	.	.	.	.	.	.	.	.
.	.	.	.	.	.	24a\JJ	.	24a\JJ	.	.	.	.	.	.	.	.	.	.	.	.	.	.	.	.	.	.	.	.	.	.	.
!	!	!	!	!	!	!LO:TUP:a:problem=klamra łukowa, kropka zamiast numeru	!	!	!	!	!	!	!	!	!	!	!	!	!	!	!	!	!	!	!	!	!	!	!	!	!
8D\	3	.	8dd 8f# 8A/	.	.	24a\LL	.	24a\LL	.	8D\	-go	-si-	8d\	-go	-si-	8a\	-go	-si-	8ff#\	-go	-si-	.	.	.	.	.	8r	.	8r	.	.
.	.	.	.	.	.	24a\	.	24a\	.	.	.	.	.	.	.	.	.	.	.	.	.	.	.	.	.	.	.	.	.	.	.
.	.	.	.	.	.	24a\JJ	.	24a\JJ	.	.	.	.	.	.	.	.	.	.	.	.	.	.	.	.	.	.	.	.	.	.	.
!LO:LB:g=original	!	!	!	!	!	!	!	!	!	!	!	!	!	!	!	!LO:LB:g=original	!	!	!	!	!	!	!	!	!	!	!	!	!	!	!
=9	=9	=9	=9	=9	=9	=9	=9	=9	=9	=9	=9	=9	=9	=9	=9	=9	=9	=9	=9	=9	=9	=9	=9	=9	=9	=9	=9	=9	=9	=9	=9
*	*	*	*	*	*	*Xtuplet	*	*	*	*	*	*	*	*	*	*	*	*	*	*	*	*	*	*	*	*	*	*	*	*	*
!	!	!	!	!	!	!	!	!	!LO:DY:t=po	!	!	!	!	!	!	!	!	!	!	!	!	!	!	!LO:DY:b:t=po	!	!LO:DY:b:t=po	!	!	!	!	!
8r	.	.	8r	.	2ryy	24e/LL	.	24cc#X\LL	p	8r	.	.	8r	.	.	8r	.	.	8r	.	.	2ryy	4a\	p	2a\	p	8e/	.	8cc#X\	.	2ryy
.	.	.	.	.	.	24a/	.	24a\	.	.	.	.	.	.	.	.	.	.	.	.	.	.	.	.	.	.	.	.	.	.	.
.	.	.	.	.	.	24a/JJ	.	24a\JJ	.	.	.	.	.	.	.	.	.	.	.	.	.	.	.	.	.	.	.	.	.	.	.
8A\	#	.	8cc#X 8e 8A/	.	.	24a/LL	.	24a\LL	.	8A\	prae-	-mum	8A\	prae-	-mum	8e\	prae-	-mus	8cc#X\	prae-	-mum	.	.	.	.	.	8r	.	8r	.	.
.	.	.	.	.	.	24a/	.	24a\	.	.	.	.	.	.	.	.	.	.	.	.	.	.	.	.	.	.	.	.	.	.	.
.	.	.	.	.	.	24a/JJ	.	24a\JJ	.	.	.	.	.	.	.	.	.	.	.	.	.	.	.	.	.	.	.	.	.	.	.
8r	.	.	8r	.	.	24f#/LL	.	24dd\LL	.	8r	.	.	8r	.	.	8r	.	.	8r	.	.	.	4d/	.	.	.	8f#/	.	8dd\	.	.
.	.	.	.	.	.	24a/	.	24a\	.	.	.	.	.	.	.	.	.	.	.	.	.	.	.	.	.	.	.	.	.	.	.
.	.	.	.	.	.	24a/JJ	.	24a\JJ	.	.	.	.	.	.	.	.	.	.	.	.	.	.	.	.	.	.	.	.	.	.	.
8D\	3	.	8dd 8f# 8A/	.	.	24a/LL	.	24a\LL	.	8F#\	-di-	si-	8A\	-di-	si-	8f#\	-di-	si-	8dd\	-di-	si-	.	.	.	.	.	8r	.	8r	.	.
.	.	.	.	.	.	24a/	.	24a\	.	.	.	.	.	.	.	.	.	.	.	.	.	.	.	.	.	.	.	.	.	.	.
.	.	.	.	.	.	24a/JJ	.	24a\JJ	.	.	.	.	.	.	.	.	.	.	.	.	.	.	.	.	.	.	.	.	.	.	.
!	!	!	!LO:LB:g=original	!	!	!	!	!	!	!	!	!	!	!	!	!	!	!	!	!	!	!	!	!	!	!	!LO:LB:g=original	!	!	!	!
=10	=10	=10	=10	=10	=10	=10	=10	=10	=10	=10	=10	=10	=10	=10	=10	=10	=10	=10	=10	=10	=10	=10	=10	=10	=10	=10	=10	=10	=10	=10	=10
!	!	!	!	!	!	!	!	!	!	!	!	!	!LO:TX:t=P:problem=wykreślone 3 takty	!	!	!	!	!	!	!	!	!	!	!	!	!	!	!	!	!	!
8r	.	.	8r	.	2ryy	24ee\LL	.	24gg\LL	.	8r	.	.	8r	.	.	8r	.	.	8r	.	.	2ryy	4a\	.	2a\	.	8ee\	.	8gg\	.	2ryy
.	.	.	.	.	.	24a\	.	24a\	.	.	.	.	.	.	.	.	.	.	.	.	.	.	.	.	.	.	.	.	.	.	.
.	.	.	.	.	.	24a\JJ	.	24a\JJ	.	.	.	.	.	.	.	.	.	.	.	.	.	.	.	.	.	.	.	.	.	.	.
8AA/	7 5	.	8ee 8g 8A/	.	.	24a\LL	.	24a\LL	.	8C#X/	-can-	-gil-	8e\	-can-	-gil-	8a\	-can-	-gil-	8gg\	-can-	-gil-	.	.	.	.	.	8r	.	8r	.	.
.	.	.	.	.	.	24a\	.	24a\	.	.	.	.	.	.	.	.	.	.	.	.	.	.	.	.	.	.	.	.	.	.	.
.	.	.	.	.	.	24a\JJ	.	24a\JJ	.	.	.	.	.	.	.	.	.	.	.	.	.	.	.	.	.	.	.	.	.	.	.
8r	.	.	8r	.	.	24dd\LL	.	24ff#\LL	.	8r	.	.	8r	.	.	8r	.	.	8r	.	.	.	4d/	.	.	.	8dd\	.	8ff#\	.	.
.	.	.	.	.	.	24a\	.	24a\	.	.	.	.	.	.	.	.	.	.	.	.	.	.	.	.	.	.	.	.	.	.	.
.	.	.	.	.	.	24a\JJ	.	24a\JJ	.	.	.	.	.	.	.	.	.	.	.	.	.	.	.	.	.	.	.	.	.	.	.
8D\	3	.	8dd 8f# 8A/	.	.	24a\LL	.	24a\LL	.	8D/	-da	-lum	8d\	-da	-lum	8a\	-da	-lum	8ff#\	-da	-lum	.	.	.	.	.	8r	.	8r	.	.
.	.	.	.	.	.	24a\	.	24a\	.	.	.	.	.	.	.	.	.	.	.	.	.	.	.	.	.	.	.	.	.	.	.
.	.	.	.	.	.	24a\JJ	.	24a\JJ	.	.	.	.	.	.	.	.	.	.	.	.	.	.	.	.	.	.	.	.	.	.	.
!	!	!	!	!	!	!	!	!	!	!	!	!	!	!	!	!	!	!	!	!	!	!	!	!	!	!	!	!	!LO:LB:g=original	!	!
=11	=11	=11	=11	=11	=11	=11	=11	=11	=11	=11	=11	=11	=11	=11	=11	=11	=11	=11	=11	=11	=11	=11	=11	=11	=11	=11	=11	=11	=11	=11	=11
!	!	!	!	!	!	!	!	!	!LO:DY:t=for.	!	!	!	!	!	!	!	!	!	!	!	!	!	!	!LO:DY:b:t=for	!	!LO:DY:b:t=for	!	!	!	!	!
8A\L	7	.	16cc#X\LL	.	2ryy	24ee\LL	.	24gg\LL	f	8A\L	o-	.	(4A\	o-	.	(8e\L	o-	.	(8ee\L	o-	.	2ryy	4a\	f	2a\	f	8ee\L|	.	8gg'\L	.	2ryy
.	.	.	.	.	.	24a\	.	24a\	.	.	.	.	.	.	.	.	.	.	.	.	.	.	.	.	.	.	.	.	.	.	.
.	.	.	16a\	.	.	.	.	.	.	.	.	.	.	.	.	.	.	.	.	.	.	.	.	.	.	.	.	.	.	.	.
.	.	.	.	.	.	24a\JJ	.	24a\JJ	.	.	.	.	.	.	.	.	.	.	.	.	.	.	.	.	.	.	.	.	.	.	.
8D\	3	.	16dd\	.	.	24dd\LL	.	24ff#\LL	.	8F#\	.	.	.	.	.	8f#\J)	.	.	8dd\J	.	.	.	.	.	.	.	8dd\|	.	8ff#'\	.	.
.	.	.	.	.	.	24a\	.	24a\	.	.	.	.	.	.	.	.	.	.	.	.	.	.	.	.	.	.	.	.	.	.	.
.	.	.	16a\JJ	.	.	.	.	.	.	.	.	.	.	.	.	.	.	.	.	.	.	.	.	.	.	.	.	.	.	.	.
.	.	.	.	.	.	24a\JJ	.	24a\JJ	.	.	.	.	.	.	.	.	.	.	.	.	.	.	.	.	.	.	.	.	.	.	.
!	!	!	!	!	!	!LO:LB:g=original	!	!	!	!	!	!	!	!	!	!	!	!	!	!	!	!	!	!	!	!	!	!	!	!	!
8C#X\	3	.	16ee\LL	.	.	24e/LL	.	24cc#X\LL	.	8C#X\J	.	.	8e\)	.	.	8a\	.	.	8gg\)	.	.	.	8a\L	.	.	.	8ee\|	.	8cc#X'\	.	.
.	.	.	.	.	.	24a/	.	24a\	.	.	.	.	.	.	.	.	.	.	.	.	.	.	.	.	.	.	.	.	.	.	.
.	.	.	16a\	.	.	.	.	.	.	.	.	.	.	.	.	.	.	.	.	.	.	.	.	.	.	.	.	.	.	.	.
.	.	.	.	.	.	24a/JJ	.	24a\JJ	.	.	.	.	.	.	.	.	.	.	.	.	.	.	.	.	.	.	.	.	.	.	.
8D\J	6	.	16dd\	.	.	24f#/LL	.	24dd\LL	.	8D\	-ra	.	8d\	-ra	.	8a\	-ra	.	8ff#\	-ra	.	.	8d\J	.	.	.	8ff#\J|	.	8dd'\J	.	.
.	.	.	.	.	.	24a/	.	24a\	.	.	.	.	.	.	.	.	.	.	.	.	.	.	.	.	.	.	.	.	.	.	.
.	.	.	16a\JJ	.	.	.	.	.	.	.	.	.	.	.	.	.	.	.	.	.	.	.	.	.	.	.	.	.	.	.	.
.	.	.	.	.	.	24a/JJ	.	24a\JJ	.	.	.	.	.	.	.	.	.	.	.	.	.	.	.	.	.	.	.	.	.	.	.
!	!	!	!	!	!	!	!	!	!	!	!	!	!LO:LB:g=original	!	!	!	!	!	!	!	!	!	!	!	!	!	!	!	!	!	!
=12	=12	=12	=12	=12	=12	=12	=12	=12	=12	=12	=12	=12	=12	=12	=12	=12	=12	=12	=12	=12	=12	=12	=12	=12	=12	=12	=12	=12	=12	=12	=12
8A\L	7	.	16cc#X\LL	.	2ryy	24ee\LL	.	24gg\LL	.	8A\L	o-	.	4A\	o-	.	8e\L	o-	.	8ee\L	o-	.	2ryy	4a\	.	2a\	.	8ee\L|	.	8gg'\L	.	2ryy
.	.	.	.	.	.	24a\	.	24a\	.	.	.	.	.	.	.	.	.	.	.	.	.	.	.	.	.	.	.	.	.	.	.
.	.	.	16a\	.	.	.	.	.	.	.	.	.	.	.	.	.	.	.	.	.	.	.	.	.	.	.	.	.	.	.	.
.	.	.	.	.	.	24a\JJ	.	24a\JJ	.	.	.	.	.	.	.	.	.	.	.	.	.	.	.	.	.	.	.	.	.	.	.
8D\	3	.	16dd\	.	.	24dd\LL	.	24ff#\LL	.	8F#\J	.	.	.	.	.	8f#\J	.	.	8dd\J	.	.	.	.	.	.	.	8dd\|	.	8ff#'\	.	.
.	.	.	.	.	.	24a\	.	24a\	.	.	.	.	.	.	.	.	.	.	.	.	.	.	.	.	.	.	.	.	.	.	.
.	.	.	16a\JJ	.	.	.	.	.	.	.	.	.	.	.	.	.	.	.	.	.	.	.	.	.	.	.	.	.	.	.	.
.	.	.	.	.	.	24a\JJ	.	24a\JJ	.	.	.	.	.	.	.	.	.	.	.	.	.	.	.	.	.	.	.	.	.	.	.
8C#X\	3	.	16ee\LL	.	.	24e/LL	.	24cc#X\LL	.	8C#X/	-ra	.	8e\	.	.	8a\	-ra	.	8gg\	-ra	.	.	8a\L	.	.	.	8ee\|	.	8cc#X'\	.	.
.	.	.	.	.	.	24a/	.	24a\	.	.	.	.	.	.	.	.	.	.	.	.	.	.	.	.	.	.	.	.	.	.	.
.	.	.	16a\	.	.	.	.	.	.	.	.	.	.	.	.	.	.	.	.	.	.	.	.	.	.	.	.	.	.	.	.
.	.	.	.	.	.	24a/JJ	.	24a\JJ	.	.	.	.	.	.	.	.	.	.	.	.	.	.	.	.	.	.	.	.	.	.	.
8D\J	6	.	16dd\	.	.	24f#/LL	.	24dd\LL	.	8D\	pro	.	8d\	-ra	.	8a\	pro	.	8ff#\	pro	.	.	8d\J	.	.	.	8ff#\J|	.	8dd'\J	.	.
.	.	.	.	.	.	24a/	.	24a\	.	.	.	.	.	.	.	.	.	.	.	.	.	.	.	.	.	.	.	.	.	.	.
.	.	.	16a\JJ	.	.	.	.	.	.	.	.	.	.	.	.	.	.	.	.	.	.	.	.	.	.	.	.	.	.	.	.
.	.	.	.	.	.	24a/JJ	.	24a\JJ	.	.	.	.	.	.	.	.	.	.	.	.	.	.	.	.	.	.	.	.	.	.	.
!	!	!	!	!	!	!	!	!LO:PB:g=original	!	!	!	!	!	!	!	!	!	!	!	!	!	!	!	!	!	!	!	!	!	!	!
=13	=13	=13	=13	=13	=13	=13	=13	=13	=13	=13	=13	=13	=13	=13	=13	=13	=13	=13	=13	=13	=13	=13	=13	=13	=13	=13	=13	=13	=13	=13	=13
*	*	*	*	*	*	*	*	*tuplet	*	*	*	*	*	*	*	*2\right	*	*	*	*	*	*	*	*	*tremolo	*	*	*	*	*	*
!	!	!	!	!	!	!	!	!LO:TUP:a:problem=klamra łukowa, kropka zamiast numeru	!	!	!	!	!	!	!	!	!	!	!	!	!	!	!	!	!	!	!	!	!	!	!
8C#X\L	.	.	16cc#X\LL	.	2ryy	24ee\LL	.	24gg\LL	.	8C#X/L	no-	.	8e\L	o-	.	2a\	no-	.	8gg\L	no-	.	2ryy	8a\L	.	8a\L	.	8ee\L|	.	8gg\L	.	2ryy
.	.	.	.	.	.	24a\	.	24a\	.	.	.	.	.	.	.	.	.	.	.	.	.	.	.	.	.	.	.	.	.	.	.
.	.	.	16a\	.	.	.	.	.	.	.	.	.	.	.	.	.	.	.	.	.	.	.	.	.	.	.	.	.	.	.	.
.	.	.	.	.	.	24a\JJ	.	24a\JJ	.	.	.	.	.	.	.	.	.	.	.	.	.	.	.	.	.	.	.	.	.	.	.
*	*	*	*	*	*	*	*	*Xtuplet	*	*	*	*	*	*	*	*	*	*	*	*	*	*	*	*	*	*	*	*	*	*	*
8D\	.	.	16dd\	.	.	24dd\LL	.	24ff#\LL	.	8D/J	.	.	8d\	.	.	.	.	.	(8ff#\	.	.	.	8d\	.	8a\	.	8dd\|	.	8ff#\	.	.
.	.	.	.	.	.	24a\	.	24a\	.	.	.	.	.	.	.	.	.	.	.	.	.	.	.	.	.	.	.	.	.	.	.
.	.	.	16a\JJ	.	.	.	.	.	.	.	.	.	.	.	.	.	.	.	.	.	.	.	.	.	.	.	.	.	.	.	.
.	.	.	.	.	.	24a\JJ	.	24a\JJ	.	.	.	.	.	.	.	.	.	.	.	.	.	.	.	.	.	.	.	.	.	.	.
8A\	.	.	16cc#\LL	.	.	24ee\LL	.	24gg\LL	.	8C#/L	.	.	8e\	.	.	.	.	.	8gg\	.	.	.	8a\	.	8a\	.	8ee\|	.	8gg\	.	.
.	.	.	.	.	.	24a\	.	24a\	.	.	.	.	.	.	.	.	.	.	.	.	.	.	.	.	.	.	.	.	.	.	.
.	.	.	16a\	.	.	.	.	.	.	.	.	.	.	.	.	.	.	.	.	.	.	.	.	.	.	.	.	.	.	.	.
.	.	.	.	.	.	24a\JJ	.	24a\JJ	.	.	.	.	.	.	.	.	.	.	.	.	.	.	.	.	.	.	.	.	.	.	.
8D\J	.	.	16dd\	.	.	24dd\LL	.	24ff#\LL	.	8D/J	.	.	8d\J	.	.	.	.	.	8ff#\J)	.	.	.	8d\J	.	8a\J	.	8dd\J|	.	8ff#\J	.	.
.	.	.	.	.	.	24a\	.	24a\	.	.	.	.	.	.	.	.	.	.	.	.	.	.	.	.	.	.	.	.	.	.	.
.	.	.	16a\JJ	.	.	.	.	.	.	.	.	.	.	.	.	.	.	.	.	.	.	.	.	.	.	.	.	.	.	.	.
.	.	.	.	.	.	24a\JJ	.	24a\JJ	.	.	.	.	.	.	.	.	.	.	.	.	.	.	.	.	.	.	.	.	.	.	.
*	*	*	*	*	*	*	*	*	*	*	*	*	*	*	*	*	*	*	*	*	*	*	*	*	*Xtremolo	*	*	*	*	*	*
!	!	!	!	!	!	!	!	!	!	!	!	!	!	!	!	!	!	!	!	!	!	!	!LO:LB:g=original	!	!	!	!	!	!	!	!
=14	=14	=14	=14	=14	=14	=14	=14	=14	=14	=14	=14	=14	=14	=14	=14	=14	=14	=14	=14	=14	=14	=14	=14	=14	=1	=14	=14	=14	=14	=14	=14
!LO:TX:t=P:problem=mixed beam	!	!	!	!	!	!LO:SIC:v:s=8cc#\L	!	!	!	!	!	!	!	!	!	!	!	!	!	!	!	!	!	!	!	!	!	!	!	!	!
8A\L	.	.	8a\L	.	2ryy	8cc\L	.	8ee\L	.	4AA/	-bis.	.	4c#X\	-ra	.	4a\	-bis	.	4ee\	-bis.	.	2ryy	8a\L	.	8a\L	.	8cc#X\L	.	8ee\L	.	2ryy
!	!	!	!	!	!	!LO:SIC:v:s=8cc#\	!	!	!	!	!	!	!	!	!	!	!	!	!	!	!	!	!	!	!	!	!	!	!	!	!
8AA/	.	.	8a\	.	.	8cc\	.	8aa\	.	.	.	.	.	.	.	.	.	.	.	.	.	.	8a\	.	8a\	.	8cc#\	.	8aa 8ee\	.	.
!	!	!	!	!	!	!LO:SIC:v:s=8cc#\J	!	!	!	!	!	!	!	!	!	!	!	!	!	!	!	!	!	!	!	!	!	!	!	!	!
8AA/J	.	.	8a\J	.	.	8cc\J	.	8aa\J	.	4r	.	.	4r	.	.	4r	.	.	4r	.	.	.	8a\J	.	8a\J	.	8cc#\J	.	8aaJ 8ee\	.	.
8r	.	.	8r	.	.	8r	.	8r	.	.	.	.	.	.	.	.	.	.	.	.	.	.	8r	.	8r	.	8r	.	8r	.	.
!	!	!	!	!	!	!	!	!	!	!	!	!	!	!	!	!	!	!	!LO:LB:g=original	!	!	!	!	!	!	!	!	!	!	!	!
=15	=15	=15	=15	=15	=15	=15	=15	=15	=15	=15	=15	=15	=15	=15	=15	=15	=15	=15	=15	=15	=15	=15	=15	=15	=15	=15	=15	=15	=15	=15	=15
!	!	!	!	!	!	!LO:SIC:v:s=4cc#\	!	!	!	!	!	!	!	!	!	!	!	!	!	!	!	!	!	!	!	!	!	!	!	!	!
!	!	!	!	!	!	!LO:TX:a:t=dolce	!	!LO:TX:b:t=dolce	!	!	!	!	!	!	!	!	!	!	!	!	!	!	!	!	!	!	!	!	!	!	!
8r	.	.	8r	.	2ryy	4cc\	.	4ee\	.	0r	.	.	0r	.	.	(4cc#X\	Vir-	no-	(4ee\	Vir-	no-	2ryy	0r	.	0r	.	0r	.	0r	.	2ryy
4AA/	.	.	4a\	.	.	.	.	.	.	.	.	.	.	.	.	.	.	.	.	.	.	.	.	.	.	.	.	.	.	.	.
.	.	.	.	.	.	(8dd\L	.	(8ff#\L	.	.	.	.	.	.	.	8dd\)	.	.	8ff#\)	.	.	.	.	.	.	.	.	.	.	.	.
8r	.	.	8r	.	.	8a\J)	.	8cc#X\J)	.	.	.	.	.	.	.	8a\	-go	-bi-	8cc#X\	-go	-bi-	.	.	.	.	.	.	.	.	.	.
=16	=16	=16	=16	=16	=16	=16	=16	=16	=16	=16	=16	=16	=16	=16	=16	=16	=16	=16	=16	=16	=16	=16	=16	=16	=16	=16	=16	=16	=16	=16	=16
!	!	!	!	!	!	!	!	!LO:SIC:v:s=(8cc#\L	!	!	!	!	!	!	!	!	!	!	!LO:SIC:v:s=(8cc#\L	!	!	!	!	!	!	!	!	!	!	!	!
8r	.	.	8r	.	2ryy	(8a#X\L	.	(8cc\L	.	.	.	.	.	.	.	(8a#X\L	po-	-liſ-	(8cc\L	po-	-lis-	2ryy	.	.	.	.	.	.	.	.	2ryy
8B\L	.	.	8b\L	.	.	8b\J)	.	8dd\J	.	.	.	.	.	.	.	8b\J)	.	.	8dd\J)	.	si-	.	.	.	.	.	.	.	.	.	.
8G#X\	.	.	8g#X\	.	.	4b\	.	4dd\)	.	.	.	.	.	.	.	4b\	-tens	-si-	4dd\	-tens	-mum	.	.	.	.	.	.	.	.	.	.
8F#\J	.	.	8f#\J	.	.	.	.	.	.	.	.	.	.	.	.	.	.	.	.	.	.	.	.	.	.	.	.	.	.	.	.
=17	=17	=17	=17	=17	=17	=17	=17	=17	=17	=17	=17	=17	=17	=17	=17	=17	=17	=17	=17	=17	=17	=17	=17	=17	=17	=17	=17	=17	=17	=17	=17
4E\	#	.	4e\	.	2ryy	4b\	.	4dd\	.	.	.	.	.	.	.	(4b\	Vir-	-mum	(4dd\	Vir-	si-	2ryy	.	.	.	.	.	.	.	.	2ryy
!	!	!	!	!	!	!LO:SIC:v:s=(8cc#\L	!	!	!	!	!	!	!	!	!	!LO:SIC:v:s=8cc#\)	!	!	!	!	!	!	!	!	!	!	!	!	!	!	!
8r	.	.	8r	.	.	(8cc\L	.	8ee\L	.	.	.	.	.	.	.	8cc\)	.	.	8ee\)	.	.	.	.	.	.	.	.	.	.	.	.
8E\	.	.	8e\	.	.	8g#X\J)	.	8b\J	.	.	.	.	.	.	.	8g#X\	-go	si-	8b\	-go	.	.	.	.	.	.	.	.	.	.	.
!LO:LB:g=original	!	!	!	!	!	!	!	!	!	!	!	!	!	!	!	!	!	!	!	!	!	!	!	!	!	!	!	!	!	!	!
=18	=18	=18	=18	=18	=18	=18	=18	=18	=18	=18	=18	=18	=18	=18	=18	=18	=18	=18	=18	=18	=18	=18	=18	=18	=18	=18	=18	=18	=18	=18	=18
!LO:TX:t=P:problem=mixed beam	!	!	!LO:TX:t=P:problem=mixed beam	!	!	!LO:SIC:v:s=8g#\L	!	!	!	!	!	!	!	!	!	!LO:SIC:v:s=8g#\L	!	!	!	!	!	!	!	!	!	!	!	!	!	!	!
8A\L	.	.	8a\L	.	2ryy	(8g/L	.	8b\L	.	.	.	.	.	.	.	8g\L	Cle-	.	8b\L	Cle-	-gil-	2ryy	.	.	.	.	.	.	.	.	2ryy
!	!	!	!	!	!	!	!	!LO:SIC:v:s=8cc#\J	!	!	!	!	!	!	!	!	!	!	!	!	!	!	!	!	!	!	!	!	!	!	!
8AA/	.	.	8A/	.	.	8an/J)	.	8cc\J	.	.	.	.	.	.	.	8a\J	.	.	8cc#X\J	.	.	.	.	.	.	.	.	.	.	.	.
!	!	!	!	!	!	!	!	!LO:SIC:v:s=8cc#\L	!	!	!	!	!	!	!	!	!	!	!	!	!	!	!	!	!	!	!	!	!	!	!
8C#X/	.	.	8c#X/	.	.	8a/L	.	8cc\L	.	.	.	.	.	.	.	8a\	.	-gil-	8cc#\	-mens	-lum	.	.	.	.	.	.	.	.	.	.
8E/J	.	.	8e/J	.	.	8g#X/J	.	8b\J	.	.	.	.	.	.	.	8g#X\	-mens	-lum	8b\	o-	.	.	.	.	.	.	.	.	.	.	.
!	!	!	!LO:LB:g=original	!	!	!LO:PB:g=original	!	!	!	!	!	!	!	!	!	!LO:LB:g=original	!	!	!	!	!	!	!	!	!	!	!	!	!	!	!
=19	=19	=19	=19	=19	=19	=19	=19	=19	=19	=19	=19	=19	=19	=19	=19	=19	=19	=19	=19	=19	=19	=19	=19	=19	=19	=19	=19	=19	=19	=19	=19
!	!	!	!	!	!	!	!	!LO:SIC:v:s=8cc#\L	!	!	!	!	!	!	!	!	!	!	!	!	!	!	!	!	!	!	!	!	!	!	!
4A\	.	.	4a\	.	2ryy	8a\L	.	8cc\L	.	1r	.	.	1r	.	.	8a\	o-	.	8cc#X\	-ra	.	2ryy	0r	.	0r	.	1r	.	1r	.	2ryy
.	.	.	.	.	.	16b\L	.	16dd\L	.	.	.	.	.	.	.	16b\LL	-ra	.	16dd\LL	pro	.	.	.	.	.	.	.	.	.	.	.
!	!	!	!	!	!	!	!	!	!	!	!	!	!	!	!	!LO:SIC:v:s=16cc#\JJ	!	!	!	!	!	!	!	!	!	!	!	!	!	!	!
.	.	.	.	.	.	16cc\JJ	.	16ee\JJ	.	.	.	.	.	.	.	16cc\JJ	.	.	16ee\JJ	.	.	.	.	.	.	.	.	.	.	.	.
8D\L	8	.	8d\L	.	.	8b\L	.	8dd\L	.	.	.	.	.	.	.	8b\L	pro	.	8dd\L	no-	.	.	.	.	.	.	.	.	.	.	.
!	!	!	!	!	!	!	!	!LO:SIC:v:s=8cc#\J	!	!	!	!	!	!	!	!	!	!	!	!	!	!	!	!	!	!	!	!	!	!	!
8D#X\J	#7	.	8d#X\J	.	.	8a\J	.	8cc\J	.	.	.	.	.	.	.	8a\J	.	.	8cc#\J	.	.	.	.	.	.	.	.	.	.	.	.
=20	=20	=20	=20	=20	=20	=20	=20	=20	=20	=20	=20	=20	=20	=20	=20	=20	=20	=20	=20	=20	=20	=20	=20	=20	=20	=20	=20	=20	=20	=20	=20
!	!	!	!	!	!	!	!	!LO:SIC:v:s=4cc#\	!	!	!	!	!	!	!	!	!	!	!	!	!	!	!	!	!	!	!	!	!	!	!
8E\L	6 4	.	4e\	.	2ryy	4a/	.	4cc\	.	.	.	.	.	.	.	4a\	no-	.	4cc#X\	.	.	2ryy	.	.	.	.	.	.	.	.	2ryy
8BB\J	.	.	.	.	.	.	.	.	.	.	.	.	.	.	.	.	.	.	.	.	.	.	.	.	.	.	.	.	.	.	.
4EE/	5 #	.	4E/	.	.	4g#X/	.	4b\	.	.	.	.	.	.	.	4g#X\	-bis	.	4b\	-bis	.	.	.	.	.	.	.	.	.	.	.
=21	=21	=21	=21	=21	=21	=21	=21	=21	=21	=21	=21	=21	=21	=21	=21	=21	=21	=21	=21	=21	=21	=21	=21	=21	=21	=21	=21	=21	=21	=21	=21
!	!	!	!	!	!	!	!	!	!	!	!	!	!	!	!	!	!	!	!	!	!	!	!	!	!	!	!	!LO:DY:b:t=po	!	!LO:DY:b:t=po&colon;	!
1r	.	.	4e\	.	2ryy	2r	.	2r	.	4E\	Vir-	no-	4E/	Vir-	no-	0r	.	.	0r	.	.	2ryy	.	.	.	.	4e/	p	4ee\	p	2ryy
.	.	.	8e\L	.	.	.	.	.	.	4E\	-go	-bi-	4E/	-go	-bi-	.	.	.	.	.	.	.	.	.	.	.	8e/L	.	8ee\L	.	.
.	.	.	8e\J	.	.	.	.	.	.	.	.	.	.	.	.	.	.	.	.	.	.	.	.	.	.	.	8e/J	.	8ee\J	.	.
=22	=22	=22	=22	=22	=22	=22	=22	=22	=22	=22	=22	=22	=22	=22	=22	=22	=22	=22	=22	=22	=22	=22	=22	=22	=22	=22	=22	=22	=22	=22	=22
*	*	*	*	*	*	*	*	*	*	*	*	*	*	*ij	*	*	*	*	*	*	*	*	*	*	*	*	*	*	*2\right	*	*
!	!	!	!	!	!	!	!LO:DY:rj:t=po	!	!LO:DY:t=po&colon;	!	!	!	!	!	!	!	!	!	!	!	!	!	!	!	!	!	!	!	!	!	!
.	.	.	8e\	.	2ryy	(16c#X/LL	p	(16a/LL	p	4E\	Vir-	-lis-	4E/	Vir-	-liſ-	.	.	.	.	.	.	2ryy	.	.	.	.	2e/	.	2ee\	.	2ryy
.	.	.	.	.	.	16B/J)	.	16g#X/J)	.	.	.	.	.	.	.	.	.	.	.	.	.	.	.	.	.	.	.	.	.	.	.
.	.	.	4e\	.	.	8B/J	.	8g#/J|	.	.	.	.	.	.	.	.	.	.	.	.	.	.	.	.	.	.	.	.	.	.	.
.	.	.	.	.	.	(16d/LL	.	(16b/LL	.	8E\	-go	-si-	8E/	-go	-si-	.	.	.	.	.	.	.	.	.	.	.	.	.	.	.	.
*	*	*	*	*	*	*	*	*	*	*	*	*	*	*Xij	*	*	*	*	*	*	*	*	*	*	*	*	*	*	*	*	*
.	.	.	.	.	.	16c#/J)	.	16a/J)	.	.	.	.	.	.	.	.	.	.	.	.	.	.	.	.	.	.	.	.	.	.	.
.	.	.	8e\	.	.	8c#/J	.	8a/J|	.	8E\	Fi-	-mum	8E/	Fi-	-mum	.	.	.	.	.	.	.	.	.	.	.	.	.	.	.	.
=23	=23	=23	=23	=23	=23	=23	=23	=23	=23	=23	=23	=23	=23	=23	=23	=23	=23	=23	=23	=23	=23	=23	=23	=23	=23	=23	=23	=23	=23	=23	=23
!LO:TX:b:t=pedal	!	!	!	!	!	!	!	!	!	!	!	!	!	!	!	!	!	!	!	!	!	!	!	!	!	!	!	!	!	!	!
4EE/	.	.	8e\	.	2ryy	(16a/LL	.	(16cc#X\LL	.	4E\	-de-	si-	4E/	-de-	si-	.	.	.	.	.	.	2ryy	1r	.	1r	.	2e/	.	2ee\	.	2ryy
.	.	.	.	.	.	16g#X/J)	.	16b\J)	.	.	.	.	.	.	.	.	.	.	.	.	.	.	.	.	.	.	.	.	.	.	.
.	.	.	4e\	.	.	8g#/J	.	8b\J|	.	.	.	.	.	.	.	.	.	.	.	.	.	.	.	.	.	.	.	.	.	.	.
4AA/	.	.	.	.	.	(16b/LL	.	(16dd\LL	.	4E\	-lis	-gil-	4E/	-lis	-gil-	.	.	.	.	.	.	.	.	.	.	.	.	.	.	.	.
.	.	.	.	.	.	16a/J)	.	16cc#\J)	.	.	.	.	.	.	.	.	.	.	.	.	.	.	.	.	.	.	.	.	.	.	.
.	.	.	8e\	.	.	8a/J|	.	8cc#\J|	.	.	.	.	.	.	.	.	.	.	.	.	.	.	.	.	.	.	.	.	.	.	.
=24	=24	=24	=24	=24	=24	=24	=24	=24	=24	=24	=24	=24	=24	=24	=24	=24	=24	=24	=24	=24	=24	=24	=24	=24	=24	=24	=24	=24	=24	=24	=24
2r	.	.	8e\	.	2ryy	(16c#X/LL	.	(16a/LL	.	4E\	Vir-	-lum	4E/	Vir-	-lum	.	.	.	.	.	.	2ryy	.	.	.	.	2e/	.	2ee\	.	2ryy
.	.	.	.	.	.	16B/J)	.	16g#X/J)	.	.	.	.	.	.	.	.	.	.	.	.	.	.	.	.	.	.	.	.	.	.	.
.	.	.	4e\	.	.	8B/J	.	8g#/J|	.	.	.	.	.	.	.	.	.	.	.	.	.	.	.	.	.	.	.	.	.	.	.
!	!	!	!	!	!	!	!	!LO:LB:g=original	!	!	!	!	!	!	!	!	!	!	!	!	!	!	!	!	!	!	!	!	!	!	!
.	.	.	.	.	.	(16d/LL	.	(16b\LL	.	8E\	-go	fa-	8E/	-go	fa-	.	.	.	.	.	.	.	.	.	.	.	.	.	.	.	.
.	.	.	.	.	.	16c#/J)	.	16a\J)	.	.	.	.	.	.	.	.	.	.	.	.	.	.	.	.	.	.	.	.	.	.	.
.	.	.	8e\	.	.	8c#/J	.	8a\J|	.	8E\	Fi-	-ci	8E/	Fi-	-ci	.	.	.	.	.	.	.	.	.	.	.	.	.	.	.	.
=25	=25	=25	=25	=25	=25	=25	=25	=25	=25	=25	=25	=25	=25	=25	=25	=25	=25	=25	=25	=25	=25	=25	=25	=25	=25	=25	=25	=25	=25	=25	=25
4EE/	.	.	8e\	.	2ryy	(16a/LL	.	(16cc#X\LL	.	4E\	-de-	tur-	4E/	-de-	tur-	2r	.	.	2r	.	.	2ryy	2r	.	2r	.	2e/	.	2ee\	.	2ryy
.	.	.	.	.	.	16g#X/J)	.	16b\J)	.	.	.	.	.	.	.	.	.	.	.	.	.	.	.	.	.	.	.	.	.	.	.
.	.	.	4e\	.	.	8g#/J	.	8b\J|	.	.	.	.	.	.	.	.	.	.	.	.	.	.	.	.	.	.	.	.	.	.	.
4AA/	.	.	.	.	.	(16b/LL	.	(16dd\LL	.	4E\	-lis	-ni-	4E/	-lis	-ni-	.	.	.	.	.	.	.	.	.	.	.	.	.	.	.	.
.	.	.	.	.	.	16a/J)	.	16cc#\J)	.	.	.	.	.	.	.	.	.	.	.	.	.	.	.	.	.	.	.	.	.	.	.
.	.	.	8e\	.	.	8a/J|	.	8cc#\J|	.	.	.	.	.	.	.	.	.	.	.	.	.	.	.	.	.	.	.	.	.	.	.
!	!	!	!	!	!	!	!	!	!	!	!	!	!LO:LB:g=original	!	!	!	!	!	!	!	!	!	!	!	!LO:LB:g=original	!	!	!	!	!	!
=26	=26	=26	=26	=26	=26	=26	=26	=26	=26	=26	=26	=26	=26	=26	=26	=26	=26	=26	=26	=26	=26	=26	=26	=26	=26	=26	=26	=26	=26	=26	=26
!LO:TX:b:t=organo	!	!	!LO:TX:t=P:problem=mixed beam	!	!	!	!	!	!	!	!	!	!LO:SIC:v:s=4c#\	!	!	!	!	!	!	!	!	!	!	!	!	!	!	!	!	!	!
16C#X/LL	.	.	(16a\LL	.	2ryy	16eeKL 16a\	.	(32a\LLL	.	4A\	o-	-ta-	4c\	o-	-ta-	4a\	o-	.	4ee\	o-	.	2ryy	4a\	.	2a\	.	4cc#X\	.	(4ee\	.	2ryy
.	.	.	.	.	.	.	.	32b\	.	.	.	.	.	.	.	.	.	.	.	.	.	.	.	.	.	.	.	.	.	.	.
!	!	!	!	!	!	!	!	!LO:SIC:v:s=32cc#\	!	!	!	!	!	!	!	!	!	!	!	!	!	!	!	!	!	!	!	!	!	!	!
16AA/	3 6_	.	16A/)	.	.	8ee 8a\	.	32cc\	.	.	.	.	.	.	.	.	.	.	.	.	.	.	.	.	.	.	.	.	.	.	.
.	.	.	.	.	.	.	.	32dd\JJJ	.	.	.	.	.	.	.	.	.	.	.	.	.	.	.	.	.	.	.	.	.	.	.
16C#/	.	.	16c#X/|	.	.	.	.	32ee\LLL	.	.	.	.	.	.	.	.	.	.	.	.	.	.	.	.	.	.	.	.	.	.	.
.	.	.	.	.	.	.	.	32ff#\	.	.	.	.	.	.	.	.	.	.	.	.	.	.	.	.	.	.	.	.	.	.	.
16AA/JJ	.	.	16A/JJ|	.	.	16eeJk 16a\	.	32gg#X\	.	.	.	.	.	.	.	.	.	.	.	.	.	.	.	.	.	.	.	.	.	.	.
.	.	.	.	.	.	.	.	32aa\JJJ)	.	.	.	.	.	.	.	.	.	.	.	.	.	.	.	.	.	.	.	.	.	.	.
!LO:SIC:v:s=16D/LL	!	!	!	!	!	!	!	!	!	!	!	!	!	!	!	!	!	!	!	!	!	!	!	!	!	!	!	!	!	!	!
16C#/LL	.	.	16d/LL	.	.	16ff#KL 16a\	.	16ff#\LL	.	8D\	-ra	-tis	8d\	-ra	-tis	8a\	-ra	.	8ff#\	-ra	.	.	4d/	.	.	.	4dd\	.	4ff#\)	.	.
16AA/	3 _	.	16A/	.	.	8ff# 8a\	.	16a\	.	.	.	.	.	.	.	.	.	.	.	.	.	.	.	.	.	.	.	.	.	.	.
!LO:SIC:v:s=16D/	!	!	!	!	!	!	!	!	!	!	!	!	!	!	!	!	!	!	!	!	!	!	!	!	!	!	!	!	!	!	!
16C#/	.	.	16d/	.	.	.	.	16ff#\	.	8r	.	.	8r	.	.	8r	.	.	8r	.	.	.	.	.	.	.	.	.	.	.	.
16AA/JJ	.	.	16A/JJ	.	.	16ff#Jk 16a\	.	16a\JJ	.	.	.	.	.	.	.	.	.	.	.	.	.	.	.	.	.	.	.	.	.	.	.
=27	=27	=27	=27	=27	=27	=27	=27	=27	=27	=27	=27	=27	=27	=27	=27	=27	=27	=27	=27	=27	=27	=27	=27	=27	=27	=27	=27	=27	=27	=27	=27
*	*	*	*	*	*	*	*	*	*	*	*ij	*	*	*ij	*	*	*	*	*	*ij	*	*	*	*	*	*	*	*	*	*	*
!LO:SIC:v:s=16C#/LL	!	!	!	!	!	!	!	!	!	!	!	!	!LO:SIC:v:s=4c#\	!	!	!	!	!	!	!	!	!	!	!	!	!	!	!	!	!	!
16D/LL	.	.	16c#X/LL	.	2ryy	16eeKL 16a\	.	(32a\LLL	.	8C#X/L	o-	o-	4c\	o-	.	4a\	o-	.	4ee\	o-	.	2ryy	4a\	.	2a\	.	4cc#X\	.	(4ee\	.	2ryy
.	.	.	.	.	.	.	.	32b\	.	.	.	.	.	.	.	.	.	.	.	.	.	.	.	.	.	.	.	.	.	.	.
16AA/	.	.	16A/	.	.	8ee 8a\	.	32cc#X\	.	.	.	.	.	.	.	.	.	.	.	.	.	.	.	.	.	.	.	.	.	.	.
.	.	.	.	.	.	.	.	32dd\JJJ	.	.	.	.	.	.	.	.	.	.	.	.	.	.	.	.	.	.	.	.	.	.	.
!LO:SIC:v:s=16C#/	!	!	!	!	!	!	!	!	!	!	!	!	!	!	!	!	!	!	!	!	!	!	!	!	!	!	!	!	!	!	!
16D/	3 _	.	16c#/	.	.	.	.	32ee\LLL	.	8AA/J	.	.	.	.	.	.	.	.	.	.	.	.	.	.	.	.	.	.	.	.	.
.	.	.	.	.	.	.	.	32ff#\	.	.	.	.	.	.	.	.	.	.	.	.	.	.	.	.	.	.	.	.	.	.	.
16AA/JJ	.	.	16A/JJ	.	.	16eeJk 16a\	.	32gg#X\	.	.	.	.	.	.	.	.	.	.	.	.	.	.	.	.	.	.	.	.	.	.	.
.	.	.	.	.	.	.	.	32aa\JJJ)	.	.	.	.	.	.	.	.	.	.	.	.	.	.	.	.	.	.	.	.	.	.	.
16D/LL	.	.	16d/LL	.	.	16ff#KL 16a\	.	16ff#\LL	.	8D\	-ra	-ra	8d\	-ra	.	8a\	-ra	.	8ff#\	-ra	.	.	4d/	.	.	.	4dd\	.	4ff#\)	.	.
*	*	*	*	*	*	*	*	*	*	*	*Xij	*	*	*Xij	*	*	*	*	*	*Xij	*	*	*	*	*	*	*	*	*	*	*
16AA/	.	.	16A/	.	.	8ff# 8a\	.	16a\	.	.	.	.	.	.	.	.	.	.	.	.	.	.	.	.	.	.	.	.	.	.	.
16D/	3 _	.	16d/	.	.	.	.	16ff#\	.	8r	.	.	8r	.	.	8r	.	.	8r	.	.	.	.	.	.	.	.	.	.	.	.
16AA/JJ	X X	.	16A/JJ	.	.	16ff#Jk 16a\	.	16a\JJ	.	.	.	.	.	.	.	.	.	.	.	.	.	.	.	.	.	.	.	.	.	.	.
!LO:PB:g=original	!	!	!	!	!	!LO:LB:g=original	!	!	!	!LO:LB:g=original	!	!	!	!	!	!	!	!	!	!	!	!	!	!	!	!	!	!	!	!	!
=28	=28	=28	=28	=28	=28	=28	=28	=28	=28	=28	=28	=28	=28	=28	=28	=28	=28	=28	=28	=28	=28	=28	=28	=28	=28	=28	=28	=28	=28	=28	=28
!	!	!	!LO:TX:t=P:problem=mixed beam	!	!	!	!	!	!	!	!	!	!	!	!	!	!	!	!	!	!	!	!	!	!	!	!	!	!	!	!
!	!	!	!LO:SIC:v:s=8c#\L	!	!	!	!	!	!	!	!	!	!LO:SIC:v:s=8c#\	!	!	!	!	!	!	!	!	!	!	!	!	!	!LO:SIC:v:s=8cc#\L	!	!	!	!
8AA/L	.	.	8c\L	.	2ryy	(16ee\LL	.	(16ee\LL	.	8C#X\	o-	.	8c\	o-	.	8a\	o-	.	8ee\	o-	.	2ryy	0r	.	2r	.	8cc\L	.	8ee\L	.	2ryy
.	.	.	.	.	.	16cc#X\)	.	16ee#X\	.	.	.	.	.	.	.	.	.	.	.	.	.	.	.	.	.	.	.	.	.	.	.
8D/J	.	.	8d\	.	.	(16dd\	.	16ff#\	.	16D\	-ra	.	16d\	-ra	.	16a\	-ra	.	16ff#\	-ra	.	.	.	.	.	.	16dd\L	.	16ff#\L	.	.
.	.	.	.	.	.	16b\JJ)	.	16dd\JJ)	.	16F#\	pro	.	16B\	pro	.	16b\	pro	.	16dd\	pro	.	.	.	.	.	.	16b\JJ	.	16dd\JJ	.	.
!LO:TX:t=P:problem=mixed beam	!	!	!	!	!	!	!	!LO:SIC:v:s=8cc#\L	!	!	!	!	!	!	!	!LO:N:vis=16	!	!	!LO:LB:g=original	!	!	!	!	!	!	!	!	!	!	!	!
8E\L	4	.	8e\	.	.	8a/L	.	8cc\L	.	4E\	no-	.	4e\	no-	.	8a\L	no-	.	8cc#X\L	no-	.	.	.	.	.	.	8a/L	.	8cc#X\L	.	.
!	!	!	!	!	!	!	!	!	!	!	!	!	!	!	!	!LO:N:vis=16	!	!	!	!	!	!	!	!	!	!	!	!	!	!	!
8EE/J	#	.	8E/J	.	.	8g#X/J	.	8b\J	.	.	.	.	.	.	.	8g#X\J	.	.	8b\J	.	.	.	.	.	.	.	8g#X/J	.	8b\J	.	.
!	!	!	!	!	!	!	!	!	!	!	!	!	!	!	!	!	!	!	!	!	!	!	!	!	!	!	!LO:LB:g=original	!	!	!	!
=29	=29	=29	=29	=29	=29	=29	=29	=29	=29	=29	=29	=29	=29	=29	=29	=29	=29	=29	=29	=29	=29	=29	=29	=29	=29	=29	=29	=29	=29	=29	=29
4AA/	.	.	4A/	.	2ryy	4a/	.	4a/	.	4AA/	-bis.	.	4e\	-bis.	.	4a\	-bis	.	4a\	-bis.	.	2ryy	.	.	4a\	.	4a/	.	4a\	.	2ryy
4r	.	.	8a\L	.	.	4r	.	8a/L	.	4r	.	.	4r	.	.	4r	.	.	4r	.	.	.	.	.	8a\L	.	4r	.	4r	.	.
.	.	.	8a\J	.	.	.	.	8a/J	.	.	.	.	.	.	.	.	.	.	.	.	.	.	.	.	8a\J	.	.	.	.	.	.
!	!	!	!LO:LB:g=original	!	!	!	!	!	!	!	!	!	!	!	!	!	!	!	!	!	!	!	!	!	!	!	!	!	!	!	!
=30	=30	=30	=30	=30	=30	=30	=30	=30	=30	=30	=30	=30	=30	=30	=30	=30	=30	=30	=30	=30	=30	=30	=30	=30	=30	=30	=30	=30	=30	=30	=30
*tremolo	*	*	*	*	*	*	*	*	*	*	*	*	*	*	*	*	*	*	*	*	*	*	*	*	*	*	*	*	*	*	*
!LO:TX:b:t=pedal	!	!	!	!	!	!	!LO:DY:rj:t=po&colon;	!	!	!	!	!	!	!	!	!	!	!	!	!	!	!	!	!	!	!	!	!	!	!	!
!LO:TX:a:t=||||	!	!	!	!	!	!	!	!	!	!	!	!	!	!	!	!	!	!	!	!	!	!	!	!	!	!	!	!	!	!	!
8AA/L|>	.	.	8a\	.	2ryy	(8f#/L	p	(8dd\L	.	0r	.	.	0r	.	.	0r	.	.	0r	.	.	2ryy	.	.	2a\	.	1r	.	1r	.	2ryy
!	!	!	!	!	!	!	!	!LO:SIC:v:s=8cc#	!	!	!	!	!	!	!	!	!	!	!	!	!	!	!	!	!	!	!	!	!	!	!
8AA/|>	.	.	4a\	.	.	8e/)	.	8cc\)	.	.	.	.	.	.	.	.	.	.	.	.	.	.	.	.	.	.	.	.	.	.	.
!	!	!	!	!	!	!	!	!	!LO:DY:t=po	!	!	!	!	!	!	!	!	!	!	!	!	!	!	!	!	!	!	!	!	!	!
8AA/|>	.	.	.	.	.	(8gn/	.	(8ee\	p	.	.	.	.	.	.	.	.	.	.	.	.	.	.	.	.	.	.	.	.	.	.
8AA/J|>	.	.	8a\	.	.	8f#/J)	.	8dd\J)	.	.	.	.	.	.	.	.	.	.	.	.	.	.	.	.	.	.	.	.	.	.	.
=31	=31	=31	=31	=31	=31	=31	=31	=31	=31	=31	=31	=31	=31	=31	=31	=31	=31	=31	=31	=31	=31	=31	=31	=31	=31	=31	=31	=31	=31	=31	=31
!LO:TX:a:t=||||	!	!	!	!	!	!	!	!	!	!	!	!	!	!	!	!	!	!	!	!	!	!	!	!	!	!	!	!	!	!	!
8AA/L|>	.	.	8a\	.	2ryy	8.a/L	.	8.ff#\L	.	.	.	.	.	.	.	.	.	.	.	.	.	2ryy	.	.	2a\	.	.	.	.	.	2ryy
8AA/|>	.	.	4a\	.	.	.	.	.	.	.	.	.	.	.	.	.	.	.	.	.	.	.	.	.	.	.	.	.	.	.	.
.	.	.	.	.	.	16g/K	.	16ee\Jk	.	.	.	.	.	.	.	.	.	.	.	.	.	.	.	.	.	.	.	.	.	.	.
8AA/|>	.	.	.	.	.	8f#/	.	8dd\L	.	.	.	.	.	.	.	.	.	.	.	.	.	.	.	.	.	.	.	.	.	.	.
!	!	!	!	!	!	!	!	!LO:SIC:v:s=8cc#\J	!	!	!	!	!	!	!	!	!	!	!	!	!	!	!	!	!	!	!	!	!	!	!
8AA/J|>	.	.	8a\	.	.	8e/J	.	8cc\J	.	.	.	.	.	.	.	.	.	.	.	.	.	.	.	.	.	.	.	.	.	.	.
!	!	!	!	!	!	!	!	!	!	!	!	!	!	!	!	!	!	!	!	!	!	!	!	!	!	!	!	!	!LO:LB:g=original	!	!
=32	=32	=32	=32	=32	=32	=32	=32	=32	=32	=32	=32	=32	=32	=32	=32	=32	=32	=32	=32	=32	=32	=32	=32	=32	=32	=32	=32	=32	=32	=32	=32
8AA/L|>	.	.	8a\	.	2ryy	8d/L	.	8f#/L	.	.	.	.	.	.	.	.	.	.	.	.	.	2ryy	1r	.	2a\	.	8dd\L	.	8ff#\L	.	2ryy
!	!	!	!	!	!	!	!	!	!	!	!	!	!	!	!	!	!	!	!	!	!	!	!	!	!	!	!LO:SIC:v:s=8cc#\	!	!	!	!
8AA/|>	.	.	4a\	.	.	8c#X/	.	8e/	.	.	.	.	.	.	.	.	.	.	.	.	.	.	.	.	.	.	8cc\	.	8ee\	.	.
8AA/|>	.	.	.	.	.	8e/	.	8g/	.	.	.	.	.	.	.	.	.	.	.	.	.	.	.	.	.	.	8ee\	.	8ggn\	.	.
8AA/J|>	.	.	8a\	.	.	8d/J	.	8f#/J	.	.	.	.	.	.	.	.	.	.	.	.	.	.	.	.	.	.	8dd\J	.	8ff#\J	.	.
=33	=33	=33	=33	=33	=33	=33	=33	=33	=33	=33	=33	=33	=33	=33	=33	=33	=33	=33	=33	=33	=33	=33	=33	=33	=33	=33	=33	=33	=33	=33	=33
!LO:TX:a:t=|||	!	!	!	!	!	!	!	!	!	!	!	!	!	!	!	!	!	!	!	!	!	!	!	!	!	!	!	!	!	!	!
8AA/L|>	.	.	8a\	.	2ryy	8.f#/L	.	8.a/L	.	.	.	.	.	.	.	.	.	.	.	.	.	2ryy	.	.	2a\	.	8.ff#\L	.	8.aa\L	.	2ryy
8AA/|>	.	.	4a\	.	.	.	.	.	.	.	.	.	.	.	.	.	.	.	.	.	.	.	.	.	.	.	.	.	.	.	.
.	.	.	.	.	.	16e/K	.	16g/K	.	.	.	.	.	.	.	.	.	.	.	.	.	.	.	.	.	.	16ee\Jk	.	16gg\Jk	.	.
8AA/|>	.	.	.	.	.	8d/	.	8f#/	.	.	.	.	.	.	.	.	.	.	.	.	.	.	.	.	.	.	8dd\L	.	8ff#\L	.	.
8AA/J|>	.	.	8a\	.	.	8c#X/J	.	8e/J	.	.	.	.	.	.	.	.	.	.	.	.	.	.	.	.	.	.	8cc#X\J	.	8ee\J	.	.
*Xtremolo	*	*	*	*	*	*	*	*	*	*	*	*	*	*	*	*	*	*	*	*	*	*	*	*	*	*	*	*	*	*	*
!	!	!	!	!	!	!	!	!LO:LB:g=original	!	!	!	!	!	!	!	!	!	!	!	!	!	!	!	!	!	!	!	!	!	!	!
=34	=34	=34	=34	=34	=34	=34	=34	=34	=34	=34	=34	=34	=34	=34	=34	=34	=34	=34	=34	=34	=34	=34	=34	=34	=34	=34	=34	=34	=34	=34	=34
!	!	!LO:DY:rj:t=for	!	!LO:DY:rj:t=for	!	!	!	!	!	!	!	!	!	!	!	!	!	!	!	!	!	!	!	!	!	!	!	!	!	!	!
8D\L	3	f	(16d\LL	f	2ryy	16dd\KL	.	(16ff#\LL	.	8D\L	o-	.	4A\	o-	.	4f#\	o-	.	4dd\	o-	.	2ryy	4d/	.	4a\	.	(4dd\	.	(4ff#\	.	2ryy
.	.	.	16f#\	.	.	8dd\	.	16a\	.	.	.	.	.	.	.	.	.	.	.	.	.	.	.	.	.	.	.	.	.	.	.
!	!	!	!	!	!	!	!	!	!LO:DY:t=for	!	!	!	!	!	!	!	!	!	!	!	!	!	!	!	!	!	!	!	!	!	!
16F#\L	.	.	16d\	.	.	.	.	16a\	f	8F#\J	.	.	.	.	.	.	.	.	.	.	.	.	.	.	.	.	.	.	.	.	.
!	!	!	!	!	!	!	!LO:DY:t=for	!	!	!	!	!	!	!	!	!	!	!	!	!	!	!	!	!	!	!	!	!	!	!	!
16D\JJ	.	.	16f#\JJ)	.	.	16dd\Jk	f	16ff#\JJ)	.	.	.	.	.	.	.	.	.	.	.	.	.	.	.	.	.	.	.	.	.	.	.
16C#X\LL	7 5	.	(16c#X\LL	.	.	(16cc#X\LL	.	(16gg\LL	.	8A\	-ra	.	8A\	-ra	.	8g\	-ra	.	8ee\	-ra	.	.	4a\	.	4a\	.	4ee\)	.	4ggn\)	.	.
16E\	.	.	16e\	.	.	16ee\)	.	16a\	.	.	.	.	.	.	.	.	.	.	.	.	.	.	.	.	.	.	.	.	.	.	.
16AA\	.	.	16A\	.	.	(16cc#\	.	16gg\	.	8r	.	.	8r	.	.	8r	.	.	8r	.	.	.	.	.	.	.	.	.	.	.	.
16C#\JJ	.	.	16c#\JJ)	.	.	16ee\JJ)	.	16a\JJ)	.	.	.	.	.	.	.	.	.	.	.	.	.	.	.	.	.	.	.	.	.	.	.
=35	=35	=35	=35	=35	=35	=35	=35	=35	=35	=35	=35	=35	=35	=35	=35	=35	=35	=35	=35	=35	=35	=35	=35	=35	=35	=35	=35	=35	=35	=35	=35
*	*	*	*	*	*	*	*	*	*	*	*ij	*	*	*ij	*	*	*	*	*	*ij	*	*	*	*	*	*	*	*	*	*	*
16D\LL	3	.	(16d\LL	.	2ryy	16dd\KL	.	(16ff#\LL	.	8D\L	o-	.	4A\	o-	.	4f#\	o-	.	4dd\	o-	.	2ryy	4d/	.	2a\	.	(4dd\	.	(4ff#\	.	2ryy
16E\	.	.	16f#\	.	.	8dd\	.	16a\	.	.	.	.	.	.	.	.	.	.	.	.	.	.	.	.	.	.	.	.	.	.	.
16F#\	.	.	16d\	.	.	.	.	16a\	.	8F#\J	.	.	.	.	.	.	.	.	.	.	.	.	.	.	.	.	.	.	.	.	.
16G\JJ	.	.	16f#\JJ)	.	.	16dd\Jk	.	16ff#\JJ)	.	.	.	.	.	.	.	.	.	.	.	.	.	.	.	.	.	.	.	.	.	.	.
!LO:TX:t=P:problem=mixed beam	!	!	!	!	!	!	!	!	!	!	!	!	!	!	!	!	!	!	!	!	!	!	!	!	!	!	!	!	!	!	!
16A\LL	7 5	.	(16c#X\LL	.	.	(16cc#X\LL	.	(16gg\LL	.	8A\	-ra	.	8A\	-ra	.	8g\	-ra	.	8ee\	-ra	.	.	4a\	.	.	.	4ee\)	.	4gg\)	.	.
*	*	*	*	*	*	*	*	*	*	*	*Xij	*	*	*Xij	*	*	*	*	*	*Xij	*	*	*	*	*	*	*	*	*	*	*
16AA/	.	.	16e\	.	.	16ee\	.	16a\	.	.	.	.	.	.	.	.	.	.	.	.	.	.	.	.	.	.	.	.	.	.	.
16C#X/	.	.	16A\	.	.	16cc#\	.	16gg\	.	8C#X/	pro	.	8A\	pro	.	8g\	pro	.	8ee\	pro	.	.	.	.	.	.	.	.	.	.	.
16AA/JJ	.	.	16c#\JJ)	.	.	16ee\JJ)	.	16a\JJ)	.	.	.	.	.	.	.	.	.	.	.	.	.	.	.	.	.	.	.	.	.	.	.
=36	=36	=36	=36	=36	=36	=36	=36	=36	=36	=36	=36	=36	=36	=36	=36	=36	=36	=36	=36	=36	=36	=36	=36	=36	=36	=36	=36	=36	=36	=36	=36
!LO:TX:t=P:problem=mixed beam	!	!	!	!	!	!	!	!	!	!	!	!	!	!	!	!	!	!	!	!	!	!	!	!	!	!	!	!	!	!	!
8D\L	.	.	(16d\LL	.	2ryy	(16a\LL	.	(16ff#\LL	.	8D\L	no-	.	8A\L	no-	.	(8a\L	no-	.	8ff#\L	no-	.	2ryy	8d\L	.	8a\L	.	8dd\L	.	(8ff#\L	.	2ryy
.	.	.	16f#\	.	.	16ff#\)	.	16a\	.	.	.	.	.	.	.	.	.	.	.	.	.	.	.	.	.	.	.	.	.	.	.
8G\	6	.	16e\	.	.	(16g\	.	16ee\	.	8G\	.	.	8B\J	.	.	8g\	.	.	(8ee\	.	.	.	8g\	.	8b\	.	(8g\	.	8ee\	.	.
.	.	.	16g\JJ)	.	.	16ee\JJ)	.	16g\JJ)	.	.	.	.	.	.	.	.	.	.	.	.	.	.	.	.	.	.	.	.	.	.	.
!	!	!	!LO:TX:t=P:problem=mixed beam	!	!	!LO:TX:t=P:problem=mixed beam	!	!	!	!	!	!	!	!	!	!	!	!	!	!	!	!	!	!	!	!	!	!	!	!	!
8A\	4	.	(>16f#\LL	.	.	(16f#/LL	.	(16dd\LL	.	8A\J	.	.	4A\	-bis	.	8f#\J)	.	.	8dd\J	.	.	.	8a\	.	8a\	.	8f#\	.	8dd\	.	.
.	.	.	16a\	.	.	16dd\)	.	16f#\	.	.	.	.	.	.	.	.	.	.	.	.	.	.	.	.	.	.	.	.	.	.	.
8AA/J	#	.	16A/	.	.	(16cc#X\	.	16e\	.	8AA/	-bis	.	.	.	.	8e\	-bis	.	8cc#X\)	-bis	.	.	8a\J	.	8a\J	.	8e\J)	.	8cc#X\J)	.	.
!	!	!	!LO:SIC:v:s=16c#/JJ)	!	!	!	!	!	!	!	!	!	!	!	!	!	!	!	!	!	!	!	!	!	!	!	!	!	!	!	!
.	.	.	16c/JJ)	.	.	16e\JJ)	.	16cc#X\JJ)	.	.	.	.	.	.	.	.	.	.	.	.	.	.	.	.	.	.	.	.	.	.	.
!LO:LB:g=original	!	!	!	!	!	!LO:LB:g=original	!	!	!	!	!	!	!	!	!	!LO:LB:g=original	!	!	!	!	!	!	!	!	!	!	!	!	!	!	!
=37	=37	=37	=37	=37	=37	=37	=37	=37	=37	=37	=37	=37	=37	=37	=37	=37	=37	=37	=37	=37	=37	=37	=37	=37	=37	=37	=37	=37	=37	=37	=37
8D\L	3	.	(16d\LL	.	2ryy	16dd\KL	.	(16ff#\LL	.	8D\L	o-	.	4A\	o-	.	4f#\	o-	.	4dd\	o-	.	2ryy	4d/	.	2a\	.	(4dd\	.	(4ff#\	.	2ryy
.	.	.	16f#\	.	.	8dd\	.	16a\	.	.	.	.	.	.	.	.	.	.	.	.	.	.	.	.	.	.	.	.	.	.	.
16F#\L	.	.	16d\	.	.	.	.	16a\	.	8F#\J	.	.	.	.	.	.	.	.	.	.	.	.	.	.	.	.	.	.	.	.	.
16D\JJ	.	.	16f#\JJ)	.	.	16dd\Jk	.	16ff#\JJ)	.	.	.	.	.	.	.	.	.	.	.	.	.	.	.	.	.	.	.	.	.	.	.
16C#X\LL	7 5	.	(16c#X\LL	.	.	(16cc#X\LL	.	(16gg\LL	.	8A\	-ra	.	8A\	-ra	.	8g\	-ra	.	8ee\	-ra	.	.	4a\	.	.	.	4ee\)	.	4gg\)	.	.
16E\	.	.	16e\	.	.	16ee\	.	16a\	.	.	.	.	.	.	.	.	.	.	.	.	.	.	.	.	.	.	.	.	.	.	.
16AA\	.	.	16A\	.	.	16cc#\	.	16gg\	.	8r	.	.	8r	.	.	8r	.	.	8r	.	.	.	.	.	.	.	.	.	.	.	.
16C#\JJ	.	.	16c#\JJ)	.	.	16ee\JJ)	.	16a\JJ)	.	.	.	.	.	.	.	.	.	.	.	.	.	.	.	.	.	.	.	.	.	.	.
!	!	!	!	!	!	!	!	!	!	!	!	!	!LO:LB:g=original	!	!	!	!	!	!	!	!	!	!	!	!	!	!	!	!	!	!
=38	=38	=38	=38	=38	=38	=38	=38	=38	=38	=38	=38	=38	=38	=38	=38	=38	=38	=38	=38	=38	=38	=38	=38	=38	=38	=38	=38	=38	=38	=38	=38
*	*	*	*	*	*	*	*	*	*	*	*ij	*	*	*	*	*	*	*	*	*ij	*	*	*	*	*	*	*	*	*	*	*
16D\LL	3	.	(16d\LL	.	2ryy	16dd\KL	.	(16ff#\LL	.	8D\L	o-	.	4A\	o-	.	4f#\	o-	.	4dd\	o-	.	2ryy	4d/	.	2a\	.	(4dd\	.	(4ff#\	.	2ryy
16E\	.	.	16f#\	.	.	8dd\	.	16a\	.	.	.	.	.	.	.	.	.	.	.	.	.	.	.	.	.	.	.	.	.	.	.
16F#\	.	.	16d\	.	.	.	.	16a\	.	8F#\J	.	.	.	.	.	.	.	.	.	.	.	.	.	.	.	.	.	.	.	.	.
16G\JJ	.	.	16f#\JJ)	.	.	16dd\Jk	.	16ff#\JJ)	.	.	.	.	.	.	.	.	.	.	.	.	.	.	.	.	.	.	.	.	.	.	.
!LO:TX:t=P:problem=mixed beam	!	!	!	!	!	!	!	!	!	!	!	!	!	!	!	!	!	!	!	!	!	!	!	!	!	!	!	!	!	!	!
16A\LL	7 5	.	(16c#X\LL	.	.	(16cc#X\LL	.	(16gg\LL	.	8A\	-ra	.	8A\	-ra	.	8g\	-ra	.	8ee\	-ra	.	.	4a\	.	.	.	4ee\)	.	4gg\)	.	.
*	*	*	*	*	*	*	*	*	*	*	*Xij	*	*	*	*	*	*	*	*	*Xij	*	*	*	*	*	*	*	*	*	*	*
16AA/	.	.	16e\	.	.	16ee\	.	16a\	.	.	.	.	.	.	.	.	.	.	.	.	.	.	.	.	.	.	.	.	.	.	.
16C#X/	.	.	16A\	.	.	16cc#\	.	16gg\	.	8A\	pro	.	8A\	pro	.	8g\	pro	.	8ee\	pro	.	.	.	.	.	.	.	.	.	.	.
16AA/JJ	.	.	16c#\JJ)	.	.	16ee\JJ)	.	16a\JJ)	.	.	.	.	.	.	.	.	.	.	.	.	.	.	.	.	.	.	.	.	.	.	.
!	!	!	!LO:LB:g=original	!	!	!	!	!	!	!LO:LB:g=original	!	!	!	!	!	!	!	!	!	!	!	!	!	!	!	!	!	!	!	!	!
=39	=39	=39	=39	=39	=39	=39	=39	=39	=39	=39	=39	=39	=39	=39	=39	=39	=39	=39	=39	=39	=39	=39	=39	=39	=39	=39	=39	=39	=39	=39	=39
!LO:TX:t=P:problem=mixed beam	!	!	!	!	!	!	!	!	!	!LO:TX:t=P:problem=mixed beam	!	!	!	!	!	!	!	!	!	!	!	!	!	!	!	!	!	!	!	!	!
8D\L	.	.	(16d\LL	.	2ryy	(16a\LL	.	(16ff#\LL	.	8d\L	no-	.	8A\L	no-	.	(8a\L	no-	.	8ff#\L	no-	.	2ryy	8d\L	.	8a\L	.	8dd/L	.	(8ff#\L	.	2ryy
.	.	.	16f#\	.	.	16ff#\	.	16a\	.	.	.	.	.	.	.	.	.	.	.	.	.	.	.	.	.	.	.	.	.	.	.
8G\	.	.	16e\	.	.	16g\	.	16ee\	.	8G\	.	.	8B\J	.	.	8g\	.	.	(8ee\	.	.	.	8g\	.	8b\	.	8g/	.	8ee\	.	.
.	.	.	16g\JJ)	.	.	16ee\JJ)	.	16g\JJ)	.	.	.	.	.	.	.	.	.	.	.	.	.	.	.	.	.	.	.	.	.	.	.
!	!	!	!LO:TX:t=P:problem=mixed beam	!	!	!LO:TX:t=P:problem=mixed beam	!	!	!	!	!	!	!	!	!	!	!	!	!	!	!	!	!	!	!	!	!	!	!	!	!
8A\	.	.	(16f#\LL	.	.	(16f#/LL	.	(16dd\LL	.	8A\	.	.	4A\	.	.	8f#\	.	.	8dd\	.	.	.	8a\	.	8a\	.	8f#/	.	8dd\	.	.
.	.	.	16a\	.	.	16dd\	.	16f#\	.	.	.	.	.	.	.	.	.	.	.	.	.	.	.	.	.	.	.	.	.	.	.
8AA/J	#	.	16A/	.	.	16cc#X\	.	16e\	.	8AA/J	.	.	.	.	.	8e\J)	.	.	8cc#X\J)	.	.	.	8a\J	.	8a\J	.	8e/J	.	8cc#X\J)	.	.
!	!	!	!LO:SIC:v:s=16c#/JJ)	!	!	!	!	!	!	!	!	!	!	!	!	!	!	!	!	!	!	!	!	!	!	!	!	!	!	!	!
.	.	.	16c/JJ)	.	.	16e\JJ)	.	16cc#X\JJ)	.	.	.	.	.	.	.	.	.	.	.	.	.	.	.	.	.	.	.	.	.	.	.
=40	=40	=40	=40	=40	=40	=40	=40	=40	=40	=40	=40	=40	=40	=40	=40	=40	=40	=40	=40	=40	=40	=40	=40	=40	=40	=40	=40	=40	=40	=40	=40
8D\L	.	.	(8d\L	.	2ryy	4f#/	.	4dd\	.	4D\	-bis	.	4A\	-bis	.	4f#\	-bis	.	4dd\	-bis	.	2ryy	4d/	.	4a\	.	4f#/	.	4dd\	.	2ryy
16d\L	.	.	16dd\L	.	.	.	.	.	.	.	.	.	.	.	.	.	.	.	.	.	.	.	.	.	.	.	.	.	.	.	.
16e\JJ	.	.	16ee\JJ)	.	.	.	.	.	.	.	.	.	.	.	.	.	.	.	.	.	.	.	.	.	.	.	.	.	.	.	.
16d\LL	.	.	(16dd\LL	.	.	4r	.	4r	.	4r	.	.	4r	.	.	4r	.	.	4r	.	.	.	4r	.	4r	.	4r	.	4r	.	.
16cn\	.	.	16ccn\	.	.	.	.	.	.	.	.	.	.	.	.	.	.	.	.	.	.	.	.	.	.	.	.	.	.	.	.
16B\	.	.	16b\	.	.	.	.	.	.	.	.	.	.	.	.	.	.	.	.	.	.	.	.	.	.	.	.	.	.	.	.
16A\JJ	.	.	16a\JJ)	.	.	.	.	.	.	.	.	.	.	.	.	.	.	.	.	.	.	.	.	.	.	.	.	.	.	.	.
!	!	!	!	!	!	!	!	!	!	!	!	!	!	!	!	!	!	!	!LO:LB:g=original	!	!	!	!	!	!	!	!	!	!	!	!
=41	=41	=41	=41	=41	=41	=41	=41	=41	=41	=41	=41	=41	=41	=41	=41	=41	=41	=41	=41	=41	=41	=41	=41	=41	=41	=41	=41	=41	=41	=41	=41
!LO:TX:t=P:problem=mixed beam	!	!	!LO:TX:t=P:problem=mixed beam	!	!	!	!	!	!	!	!	!	!:cały takt	!	!	!	!	!	!	!	!	!	!	!	!	!	!	!	!	!	!
8G\L	.	.	8g\L	.	2ryy	8b\L	.	8dd\L	.	8G\	Spe-	sca-	8d\	Spe-	sca-	8b\	Spe-	sca-	8dd\	Spe-	sca-	2ryy	4G/	.	4d/	.	8b\L	.	(8dd\L	.	2ryy
8GG/	.	.	8G/	.	.	8g\J	.	8b\J	.	8GG/	-cu-	-tu-	8d\	-cu-	-tu-	8g\	-cu-	.	8b\	-cu-	-tu-	.	.	.	.	.	8g\J	.	8b\J)	.	.
8BB/	.	.	8B/	.	.	(8ee\L	.	(8gg\L	.	8BB/	-lum	-ri-	8d\	-lum	-ri-	8ee\	-lum	-tu-	8gg\	-lum	-ri-	.	4r	.	4r	.	8ee\L	.	8gg\L	.	.
8C/J	.	.	8c/J	.	.	16dd\L	.	16ff#\L	.	8C/	ju-	-go	8e\	Ju-	-go	16dd\LL	jus-	-ri-	16ff#\LL	jus-	.	.	.	.	.	.	16dd\L	.	(16ff#\L	.	.
.	.	.	.	.	.	16ccn\JJ)	.	16ee\JJ)	.	.	.	.	.	.	.	16ccn\JJ	.	.	16ee\JJ	.	.	.	.	.	.	.	16ccn\JJ	.	16ee\JJ)	.	.
=42	=42	=42	=42	=42	=42	=42	=42	=42	=42	=42	=42	=42	=42	=42	=42	=42	=42	=42	=42	=42	=42	=42	=42	=42	=42	=42	=42	=42	=42	=42	=42
!LO:TX:t=P:problem=mixed beam	!	!	!LO:TX:t=P:problem=mixed beam	!	!	!	!	!	!	!	!	!	!	!	!	!	!	!	!	!	!	!	!	!	!	!	!	!	!	!	!
8D\L	.	.	8d\L	.	2ryy	(16cc\LL	.	(16ee\LL	.	8D\	-sti-	ve-	8d\	-sti-	ve-	(16cc\LL	-ti-	-go	16ee\LL	-ti-	.	2ryy	8d/L	.	8a\L	.	16cc\LL	.	(16ee\LL	.	2ryy
.	.	.	.	.	.	16b\	.	16dd\	.	.	.	.	.	.	.	16b\JJ)	.	.	16dd\JJ	.	.	.	.	.	.	.	16b\	.	16dd\)	.	.
8DD/J	.	.	8D/J	.	.	16b\	.	16dd\	.	8D\	-ti-	.	8d\	-ti-	.	(16b\LL	-ti-	ve-	16dd\LL	-ti-	.	.	8d/J	.	8a\J	.	16b\	.	(16dd\	.	.
.	.	.	.	.	.	16a\JJ)	.	16ccn\JJ)	.	.	.	.	.	.	.	16a\JJ)	.	.	16ccn\JJ	.	.	.	.	.	.	.	16a\JJ	.	16ccn\JJ)	.	.
.	.	.	.	.	.	(<8qqa/	.	8qqcc/	.	.	.	.	.	.	.	8qqa/	.	.	8qqcc/	.	.	.	.	.	.	.	(<8qqa/	.	8qqcc/	.	.
4GG/	.	.	4G/	.	.	4g/)	.	4b\	.	4GG/	-ae	-rae	4d\	-ae	-rae	4g\	-a	-re	4b\	-ae	-go	.	4g\	.	4b\	.	4g/)	.	4b\	.	.
!	!	!	!	!	!	!	!	!LO:LB:g=original	!	!	!	!	!	!	!	!	!	!	!	!	!	!	!	!	!	!	!LO:LB:g=original	!	!	!	!
=43	=43	=43	=43	=43	=43	=43	=43	=43	=43	=43	=43	=43	=43	=43	=43	=43	=43	=43	=43	=43	=43	=43	=43	=43	=43	=43	=43	=43	=43	=43	=43
8G\L	.	.	8g\	.	2ryy	8d/L	.	8b\L	.	8G\	Se-	ve-	8G/	Se-	ve-	8d\	Se-	ve-	8b\	Se-	ve-	2ryy	0r	.	0r	.	1r	.	1r	.	2ryy
8Fn\	.	.	4g\	.	.	8d/J	.	8b\J	.	8Fn\	-des	-rae	8G/	-des	-rae	8d\	-des	-re	8b\	-des	-re	.	.	.	.	.	.	.	.	.	.
!	!	!	!	!	!	!	!LO:DY:t=po&colon;	!	!LO:DY:t=po&colon;	!	!	!	!	!	!	!	!	!	!	!	!	!	!	!	!	!	!	!	!	!	!
8E\	.	.	.	.	.	8e/L	p	8cc\L	p	8E\	Sa-	le-	8G/	Sa-	le-	8e\	sa-	.	8cc\	Sa-	le-	.	.	.	.	.	.	.	.	.	.
8D\J	.	.	8g\	.	.	8g/J	.	8ee\J	.	8C\	-pi-	-ti-	8G/	-pi-	-ti-	8g\	-pi-	le-	8ee\	-pi-	-ty-	.	.	.	.	.	.	.	.	.	.
=44	=44	=44	=44	=44	=44	=44	=44	=44	=44	=44	=44	=44	=44	=44	=44	=44	=44	=44	=44	=44	=44	=44	=44	=44	=44	=44	=44	=44	=44	=44	=44
8Fn\L	.	.	8g\L	.	2ryy	16g/LL	.	16ee\LL	.	8F#\	-en-	-ti-	8G/	-en-	-ti-	16g\LL	-en-	-ti-	16ee\LL	-en-	-ti-	2ryy	.	.	.	.	.	.	.	.	2ryy
.	.	.	.	.	.	(16fn/	.	(16dd\	.	.	.	.	.	.	.	16f#\JJ	.	.	16dd\JJ	.	.	.	.	.	.	.	.	.	.	.	.
8G\J	.	.	8g\J	.	.	16e/	.	16cc\	.	8G\	-ti-	.	8G/	-ti-	.	16e\LL	-ti-	-ti-	16cc\LL	-ti-	.	.	.	.	.	.	.	.	.	.	.
.	.	.	.	.	.	16d/JJ)	.	16b\JJ	.	.	.	.	.	.	.	16d\JJ	.	.	16b\JJ	.	.	.	.	.	.	.	.	.	.	.	.
!	!	!	!	!	!	!	!	!	!	!	!	!	!	!	!	!	!	!	!LO:TX:b:i:t=VS&colon;	!	!	!	!	!	!	!	!	!	!	!	!
4C/	.	.	4g\	.	.	4e/	.	4cc\)	.	4C/	-ae	-e	4G/	-ae	-e.	4e\	-ae	-e	4cc\	-ae	-e	.	.	.	.	.	.	.	.	.	.
!LO:LB:g=original	!	!	!	!	!	!	!	!	!	!	!	!	!LO:LB:g=original	!	!	!	!	!	!LO:PB:g=original	!	!	!	!	!	!	!	!	!	!	!	!
=45	=45	=45	=45	=45	=45	=45	=45	=45	=45	=45	=45	=45	=45	=45	=45	=45	=45	=45	=45	=45	=45	=45	=45	=45	=45	=45	=45	=45	=45	=45	=45
!LO:TX:t=P:problem=mixed beam	!	!	!LO:TX:t=P:problem=mixed beam	!	!	!	!	!	!	!	!	!	!	!	!	!	!	!	!	!	!	!	!	!	!	!	!	!	!	!	!
8A\L	#	.	8a\L	.	2ryy	8cc#X\L	.	(8ee\L	.	8A\	Cau-	sa-	8c#X\	cau-	sa-	8e\	Cau-	sca-	8ee\	cau-	sca-	2ryy	.	.	.	.	(8cc#X\L	.	(8ee\L	.	2ryy
8AA/	.	.	8A/	.	.	8a\J	.	8cc#X\J)	.	8AA/	-ſa	-la-	8A\	-ſa	.	8e\	-ſa	-tu-	8cc#X\	-ſa	-tu-	.	.	.	.	.	8a\J)	.	8cc#X\J)	.	.
!	!	!	!	!	!	!	!LO:DY:t=for	!	!LO:DY:t=for	!	!	!	!	!	!	!	!	!	!	!	!	!	!	!	!	!	!	!	!	!	!
8C#X/	.	.	8c#X/	.	.	(8ff#\L	f	8aa\L	f	8C#X/	no-	-men	8f#\	no-	.	8e\	No-	-ri-	8aa\	no-	-ri-	.	.	.	.	.	(8ff#\L	.	(8aa\L	.	.
8D/J	.	.	8d/J	.	.	16ee\L	.	16gg#X\L	.	16D/	-strae	.	16e\	-strae	-la-	16e\	-stre	-go	16gg#X\	-strae	.	.	.	.	.	.	16ee\L	.	16gg#X\L	.	.
.	.	.	.	.	.	16dd\JJ)	.	16ff#\JJ	.	16D/	Lae-	.	16d\	Lae-	-men	16f#\	.	.	16ff#\	Lae-	.	.	.	.	.	.	16dd\JJ)	.	16ff#\JJ)	.	.
!	!	!	!	!	!	!LO:LB:g=original	!	!	!	!LO:PB:g=original	!	!	!	!	!	!LO:LB:g=original	!	!	!	!	!	!	!	!	!	!	!	!	!LO:LB:g=original	!	!
=46	=46	=46	=46	=46	=46	=46	=46	=46	=46	=46	=46	=46	=46	=46	=46	=46	=46	=46	=46	=46	=46	=46	=46	=46	=46	=46	=46	=46	=46	=46	=46
!LO:TX:t=P:problem=mixed beam	!	!	!LO:TX:t=P:problem=mixed beam	!	!	!	!	!	!	!	!	!	!	!	!	!	!	!	!	!	!	!	!	!	!	!	!	!	!	!	!
8E\L	.	.	8e\L	.	2ryy	16dd\LL	.	(16ff#\LL	.	8E\	-ti-	.	16d\LL	-ti-	.	8e\	le-	ve-	16ff#\LL	-ti-	.	2ryy	.	.	.	.	(16dd\LL	.	16ff#\LL	.	2ryy
.	.	.	.	.	.	16cc#X\	.	16ee\	.	.	.	.	16c#X\JJ	.	.	.	.	.	16ee\JJ	.	.	.	.	.	.	.	16cc#X\	.	16ee\	.	.
8EE/J	.	.	8E/J	.	.	16cc#\	.	16ee\	.	8E\	-ti-	.	16c#\LL	-ti-	.	8e\	-ti-	-re	16ee\LL	-ti-	.	.	.	.	.	.	16cc#\	.	16ee\	.	.
.	.	.	.	.	.	16b\JJ	.	16dd\JJ)	.	.	.	.	16B\JJ	.	.	.	.	.	16dd\JJ	.	.	.	.	.	.	.	16b\JJ)	.	16dd\JJ	.	.
.	.	.	.	.	.	(8qqb/	.	8qqdd/	.	.	.	.	8qqB/	.	.	.	.	.	8qqdd/	.	.	.	.	.	.	.	(8qqb/	.	(8qqdd/	.	.
4AA/	#	.	4A/	.	.	4a\)	.	4cc#X\	.	4AA/	-ae	.	4A\	-ae	.	4e\	-tiae	ve-	4cc#X\	-ae	go	.	.	.	.	.	4a\)	.	4cc#X\)	.	.
=47	=47	=47	=47	=47	=47	=47	=47	=47	=47	=47	=47	=47	=47	=47	=47	=47	=47	=47	=47	=47	=47	=47	=47	=47	=47	=47	=47	=47	=47	=47	=47
!	!	!	!	!	!	!	!	!LO:SIC:v:s=8cc#\L|	!	!	!	!	!	!	!	!	!	!	!LO:SIC:v:s=8cc#\	!	!	!	!	!	!	!	!	!	!	!	!
8A\L	#	.	8a\	.	2ryy	8e/L	.	8cc\L|	.	8A\L	Vas	mo-	4A\	Vas	mo-	8e\	vas	.	8cc\	Vas	ve-	2ryy	1r	.	1r	.	1r	.	1r	.	2ryy
!	!	!	!	!	!	!	!	!LO:SIC:v:s=8cc#\J|	!	!	!	!	!	!	!	!	!	!	!LO:SIC:v:s=8cc#\	!	!	!	!	!	!	!	!	!	!	!	!
8G\	.	.	4a\	.	.	8e/J	.	8cc\J|	.	8G\J	.	.	.	.	.	8e\	Spi-	-re	8cc\	Spi-	-re	.	.	.	.	.	.	.	.	.	.
!	!	!	!	!	!	!	!LO:DY:t=po	!	!LO:DY:t=po	!	!	!	!	!	!	!	!	!	!	!	!	!	!	!	!	!	!	!	!	!	!
8F#\	.	.	.	.	.	8f#/L	p	(8dd\L	p	8F#X\	ho-	.	8A\	ho-	.	8f#\	-ri-	le-	8dd\	-ri-	le-	.	.	.	.	.	.	.	.	.	.
8D\J	.	.	8a\	.	.	8a/J	.	8ff#\J)	.	8D\	-no-	-e-	8A\	-no-	.	8a 8g\	-tu-	-ti-	8ff#\	-tu-	-ti-	.	.	.	.	.	.	.	.	.	.
=48	=48	=48	=48	=48	=48	=48	=48	=48	=48	=48	=48	=48	=48	=48	=48	=48	=48	=48	=48	=48	=48	=48	=48	=48	=48	=48	=48	=48	=48	=48	=48
8G\L	.	.	8a\L	.	2ryy	16a/LL	.	16ff#\LL	.	8G\	-ra-	-sto-	8A\	-ra-	-e-	16a\LL	-a-	-ti-	16ff#\LL	-a-	-ti-	2ryy	.	.	.	.	.	.	.	.	2ryy
.	.	.	.	.	.	(16g/	.	16ee\	.	.	.	.	.	.	.	(16g\	.	.	16ee\	.	.	.	.	.	.	.	.	.	.	.	.
8A\J	.	.	8a\J	.	.	16f#/	.	(16dd\	.	8A\	-bi-	.	8A\	-bi-	-sto-	16f#\	.	.	(16dd\	.	.	.	.	.	.	.	.	.	.	.	.
.	.	.	.	.	.	16e/JJ)	.	16cc#X\JJ)	.	.	.	.	.	.	.	16e\JJ)	.	.	16cc#X\JJ	.	.	.	.	.	.	.	.	.	.	.	.
4D\	.	.	4a\	.	.	4f#/	.	4dd\	.	4D\	-le	-rum	4A\	-le	-rum	4f#\	-le	-e	4dd\)	-le	-e	.	.	.	.	.	.	.	.	.	.
!	!	!	!LO:LB:g=original	!	!	!	!	!	!	!	!	!	!	!	!	!	!	!	!	!	!	!	!	!	!	!	!	!	!	!	!
=49	=49	=49	=49	=49	=49	=49	=49	=49	=49	=49	=49	=49	=49	=49	=49	=49	=49	=49	=49	=49	=49	=49	=49	=49	=49	=49	=49	=49	=49	=49	=49
*	*	*	*	*	*	*	*	*tuplet	*	*	*	*	*	*	*	*	*	*	*	*	*	*	*	*	*	*	*	*	*	*	*
!	!	!	!LO:TUP:a:problem=klamra łukowa, kropka zamiast numeru	!	!	!	!	!LO:TUP:a:problem=klamra łukowa, kropka zamiast numeru	!	!	!	!	!	!	!	!	!	!	!	!	!	!	!	!	!	!	!	!	!	!	!
8r	.	.	24ccn\LL	.	2ryy	8r	.	24ff#\LL	.	8r	.	.	8r	.	.	8r	.	.	8r	.	.	2ryy	4d/	.	4a\	.	8a/|	.	8ff#\|	.	2ryy
.	.	.	24d\	.	.	.	.	24dd\	.	.	.	.	.	.	.	.	.	.	.	.	.	.	.	.	.	.	.	.	.	.	.
.	.	.	24d\JJ	.	.	.	.	24dd\JJ	.	.	.	.	.	.	.	.	.	.	.	.	.	.	.	.	.	.	.	.	.	.	.
!	!	!	!LO:TUP:a:problem=klamra łukowa, kropka zamiast numeru	!	!	!	!LO:DY:t=ffor	!LO:TUP:a:problem=klamra łukowa, kropka zamiast numeru	!LO:DY:rj:t=ffor	!	!	!	!	!	!	!	!	!	!	!	!	!	!	!	!	!	!	!	!	!	!
8D\	n7 5	.	24d\LL	.	.	8aa 8cc 8d/	ff	24dd\LL	ff	8F#\	Vas	for-	8d\	Vas	for-	8a\	vas	for-	8ccn\	Vas	for-	.	.	.	.	.	8r	.	8r	.	.
.	.	.	24d\	.	.	.	.	24dd\	.	.	.	.	.	.	.	.	.	.	.	.	.	.	.	.	.	.	.	.	.	.	.
.	.	.	24d\JJ	.	.	.	.	24dd\JJ	.	.	.	.	.	.	.	.	.	.	.	.	.	.	.	.	.	.	.	.	.	.	.
!	!	!	!LO:TUP:a:problem=klamra łukowa, kropka zamiast numeru	!	!	!	!	!LO:TUP:a:problem=klamra łukowa, kropka zamiast numeru	!	!	!	!	!	!	!	!	!	!	!	!	!	!	!	!	!	!	!	!	!	!	!
8r	.	.	24b\LL	.	.	8r	.	24gg\LL	.	8r	.	.	8r	.	.	8r	.	.	8r	.	.	.	4g\	.	4b\	.	8b/|	.	8gg\|	.	.
.	.	.	24d\	.	.	.	.	24dd\	.	.	.	.	.	.	.	.	.	.	.	.	.	.	.	.	.	.	.	.	.	.	.
.	.	.	24d\JJ	.	.	.	.	24dd\JJ	.	.	.	.	.	.	.	.	.	.	.	.	.	.	.	.	.	.	.	.	.	.	.
!	!	!	!LO:TUP:a:problem=klamra łukowa, kropka zamiast numeru	!	!	!	!	!LO:TUP:a:problem=klamra łukowa, kropka zamiast numeru	!	!	!	!	!	!	!	!	!	!	!	!	!	!	!	!	!	!	!	!	!	!	!
8G\	3	.	24d\LL	.	.	8gg 8b 8d/	.	24dd\LL	.	8G\	in	-ti-	8d\	in	-ti-	8g\	in	-ti-	8b\	in	-ti-	.	.	.	.	.	8r	.	8r	.	.
.	.	.	24d\	.	.	.	.	24dd\	.	.	.	.	.	.	.	.	.	.	.	.	.	.	.	.	.	.	.	.	.	.	.
.	.	.	24d\JJ	.	.	.	.	24dd\JJ	.	.	.	.	.	.	.	.	.	.	.	.	.	.	.	.	.	.	.	.	.	.	.
=50	=50	=50	=50	=50	=50	=50	=50	=50	=50	=50	=50	=50	=50	=50	=50	=50	=50	=50	=50	=50	=50	=50	=50	=50	=50	=50	=50	=50	=50	=50	=50
*	*	*	*	*	*	*	*	*Xtuplet	*	*	*	*	*	*	*	*	*	*	*	*	*	*	*	*	*	*	*	*	*	*	*
!	!	!	!LO:TUP:a:problem=klamra łukowa, kropka zamiast numeru	!	!	!	!	!	!	!	!	!	!	!	!	!	!	!	!	!	!	!	!	!	!	!	!	!	!	!	!
8r	.	.	24a\LL	.	2ryy	8r	.	24cccn\LL	.	8r	.	.	8r	.	.	8r	.	.	8r	.	.	2ryy	4d/	.	4a\	.	8ccn\|	.	8aa\|	.	2ryy
.	.	.	24d\	.	.	.	.	24dd\	.	.	.	.	.	.	.	.	.	.	.	.	.	.	.	.	.	.	.	.	.	.	.
.	.	.	24d\JJ	.	.	.	.	24dd\JJ	.	.	.	.	.	.	.	.	.	.	.	.	.	.	.	.	.	.	.	.	.	.	.
!	!	!	!LO:TUP:a:problem=klamra łukowa, kropka zamiast numeru	!	!	!	!	!	!	!	!	!	!	!	!	!	!	!	!	!	!	!	!	!	!	!	!	!	!	!	!
8D\	7 5	.	24d\LL	.	.	8ff# 8a 8d/	.	24dd\LL	.	8D\	Sig-	-tu-	8d\	Sig-	-tu-	8f#\	Sig-	-tu-	8a\	Sig-	-tu-	.	.	.	.	.	8r	.	8r	.	.
.	.	.	24d\	.	.	.	.	24dd\	.	.	.	.	.	.	.	.	.	.	.	.	.	.	.	.	.	.	.	.	.	.	.
.	.	.	24d\JJ	.	.	.	.	24dd\JJ	.	.	.	.	.	.	.	.	.	.	.	.	.	.	.	.	.	.	.	.	.	.	.
!	!	!	!LO:TUP:a:problem=klamra łukowa, kropka zamiast numeru	!	!	!	!	!	!	!	!	!	!	!	!	!	!	!	!	!	!	!	!	!	!	!	!	!	!	!	!
8r	.	.	24g\LL	.	.	8r	.	24bb\LL	.	8r	.	.	8r	.	.	8r	.	.	8r	.	.	.	8B/L	.	4g\	.	8b\|	.	8gg\|	.	.
.	.	.	24d\	.	.	.	.	24dd\	.	.	.	.	.	.	.	.	.	.	.	.	.	.	.	.	.	.	.	.	.	.	.
.	.	.	24d\JJ	.	.	.	.	24dd\JJ	.	.	.	.	.	.	.	.	.	.	.	.	.	.	.	.	.	.	.	.	.	.	.
!	!	!	!LO:TUP:a:problem=klamra łukowa, kropka zamiast numeru	!	!	!	!	!	!	!	!	!	!LO:TX:b:i:t=VS.	!	!	!	!	!	!	!	!	!	!	!	!	!	!	!	!	!	!
8GG/	.	.	24d\LL	.	.	8gg 8b 8d/	.	24dd\LL	.	8GG/	-ne	-do	8d\	-ne	-do	8g\	-ne	-do	8b\	-ne	-do	.	8G/J	.	.	.	8r	.	8r	.	.
.	.	.	24d\	.	.	.	.	24dd\	.	.	.	.	.	.	.	.	.	.	.	.	.	.	.	.	.	.	.	.	.	.	.
.	.	.	24d\JJ	.	.	.	.	24dd\JJ	.	.	.	.	.	.	.	.	.	.	.	.	.	.	.	.	.	.	.	.	.	.	.
!	!	!	!	!	!	!	!	!LO:LB:g=original	!	!	!	!	!LO:LB:g=original	!	!	!	!	!	!LO:LB:g=original	!	!	!	!LO:LB:g=original	!	!	!	!	!	!	!	!
=51	=51	=51	=51	=51	=51	=51	=51	=51	=51	=51	=51	=51	=51	=51	=51	=51	=51	=51	=51	=51	=51	=51	=51	=51	=51	=51	=51	=51	=51	=51	=51
!	!	!	!LO:TUP:a:problem=klamra łukowa, kropka zamiast numeru	!	!	!	!	!	!	!	!	!	!	!	!	!	!	!	!	!	!	!	!	!	!	!	!	!	!	!	!
8r	.	.	24cc\LL	.	2ryy	8r	.	24ff#\LL	.	8r	.	.	8r	.	.	8r	.	.	8r	.	.	2ryy	4d/	.	4a\	.	8a\|	.	8ff#\|	.	2ryy
.	.	.	24d\	.	.	.	.	24dd\	.	.	.	.	.	.	.	.	.	.	.	.	.	.	.	.	.	.	.	.	.	.	.
.	.	.	24d\JJ	.	.	.	.	24dd\JJ	.	.	.	.	.	.	.	.	.	.	.	.	.	.	.	.	.	.	.	.	.	.	.
!	!	!	!LO:TUP:a:problem=klamra łukowa, kropka zamiast numeru	!	!	!	!	!	!	!	!	!	!	!	!	!	!	!	!	!	!	!	!	!	!	!	!	!	!	!	!
8D\	.	.	24d\LL	.	.	8aa 8cc 8d/	.	24dd\LL	.	8F#\	Vas	lan-	8d\	Vas	lan-	8a\	vas	lan-	8cc\	Vas	lan-	.	.	.	.	.	8r	.	8r	.	.
.	.	.	24d\	.	.	.	.	24dd\	.	.	.	.	.	.	.	.	.	.	.	.	.	.	.	.	.	.	.	.	.	.	.
.	.	.	24d\JJ	.	.	.	.	24dd\JJ	.	.	.	.	.	.	.	.	.	.	.	.	.	.	.	.	.	.	.	.	.	.	.
!	!	!	!LO:TUP:a:problem=klamra łukowa, kropka zamiast numeru	!	!	!	!	!	!	!	!	!	!	!	!	!	!	!	!	!	!	!	!	!	!	!	!	!	!	!	!
8r	.	.	24b\LL	.	.	8r	.	24gg\LL	.	8r	.	.	8r	.	.	8r	.	.	8r	.	.	.	4g\	.	4b\	.	8b\|	.	8gg\|	.	.
.	.	.	24d\	.	.	.	.	24dd\	.	.	.	.	.	.	.	.	.	.	.	.	.	.	.	.	.	.	.	.	.	.	.
.	.	.	24d\JJ	.	.	.	.	24dd\JJ	.	.	.	.	.	.	.	.	.	.	.	.	.	.	.	.	.	.	.	.	.	.	.
!	!	!	!LO:TUP:a:problem=klamra łukowa, kropka zamiast numeru	!	!	!	!	!	!	!	!	!	!	!	!	!	!	!	!	!	!	!	!	!	!	!	!	!	!	!	!
8G\	.	.	24d\LL	.	.	8gg 8b 8d/	.	24dd\LL	.	8G\	in	-qven-	8d\	in	-qven-	8g\	in	-quen-	8b\	in	-quen-	.	.	.	.	.	8r	.	8r	.	.
.	.	.	24d\	.	.	.	.	24dd\	.	.	.	.	.	.	.	.	.	.	.	.	.	.	.	.	.	.	.	.	.	.	.
.	.	.	24d\JJ	.	.	.	.	24dd\JJ	.	.	.	.	.	.	.	.	.	.	.	.	.	.	.	.	.	.	.	.	.	.	.
!	!	!	!	!	!	!	!	!	!	!	!	!	!	!	!	!	!	!	!	!	!	!	!	!	!LO:LB:g=original	!	!	!	!	!	!
=52	=52	=52	=52	=52	=52	=52	=52	=52	=52	=52	=52	=52	=52	=52	=52	=52	=52	=52	=52	=52	=52	=52	=52	=52	=52	=52	=52	=52	=52	=52	=52
!	!	!	!LO:TUP:a:problem=klamra łukowa, kropka zamiast numeru	!	!	!	!	!	!	!	!	!	!	!	!	!	!	!	!	!	!	!	!	!	!	!	!	!	!	!	!
8r	.	.	24a\LL	.	2ryy	8r	.	24ccc\LL	.	8r	.	.	8r	.	.	8r	.	.	8r	.	.	2ryy	4d/	.	4a\	.	8cc\	.	8aa\|	.	2ryy
.	.	.	24d\	.	.	.	.	24dd\	.	.	.	.	.	.	.	.	.	.	.	.	.	.	.	.	.	.	.	.	.	.	.
.	.	.	24d\JJ	.	.	.	.	24dd\JJ	.	.	.	.	.	.	.	.	.	.	.	.	.	.	.	.	.	.	.	.	.	.	.
*	*	*	*tremolo	*	*	*	*	*	*	*	*	*	*	*	*	*	*	*	*	*	*	*	*	*	*	*	*	*	*	*	*
!	!	!	!LO:TUP:a:problem=klamra łukowa, kropka zamiast numeru	!	!	!	!	!	!	!	!	!	!	!	!	!	!	!	!	!	!	!	!	!	!	!	!	!	!	!	!
8D\	.	.	24d\LL	.	.	8ff# 8a 8d/	.	24dd\LL	.	8D\	Sig-	-ti-	8d\	Sig-	-ti-	8f#\	Sig-	-ti-	8a\	Sig-	-ti-	.	.	.	.	.	8r	.	8r	.	.
.	.	.	24d\	.	.	.	.	24dd\	.	.	.	.	.	.	.	.	.	.	.	.	.	.	.	.	.	.	.	.	.	.	.
.	.	.	24d\JJ	.	.	.	.	24dd\JJ	.	.	.	.	.	.	.	.	.	.	.	.	.	.	.	.	.	.	.	.	.	.	.
*	*	*	*Xtremolo	*	*	*	*	*	*	*	*	*	*	*	*	*	*	*	*	*	*	*	*	*	*	*	*	*	*	*	*
*	*	*	*Xtuplet	*	*	*	*	*	*	*	*	*	*	*	*	*	*	*	*	*	*	*	*	*	*	*	*	*	*	*	*
8r	.	.	24g\LL	.	.	8r	.	24bb\LL	.	8r	.	.	8r	.	.	8r	.	.	8r	.	.	.	8G/L	.	4g\	.	8b\	.	8gg\|	.	.
.	.	.	24d\	.	.	.	.	24dd\	.	.	.	.	.	.	.	.	.	.	.	.	.	.	.	.	.	.	.	.	.	.	.
.	.	.	24d\JJ	.	.	.	.	24dd\JJ	.	.	.	.	.	.	.	.	.	.	.	.	.	.	.	.	.	.	.	.	.	.	.
*	*	*	*tremolo	*	*	*	*	*	*	*	*	*	*	*	*	*	*	*	*	*	*	*	*	*	*	*	*	*	*	*	*
*	*	*	*tuplet	*	*	*	*	*	*	*	*	*	*	*	*	*	*	*	*	*	*	*	*	*	*	*	*	*	*	*	*
!	!	!	!LO:TUP:a:problem=klamra łukowa, kropka zamiast numeru	!	!	!	!	!	!	!	!	!	!	!	!	!	!	!	!	!	!	!	!	!	!	!	!	!	!	!	!
8GG/	.	.	24d\LL	.	.	8gg 8b 8d/	.	24dd\LL	.	8GG/	-ne	-um	8d\	-ne	-um	8g\	-ne	-um	8b\	-ne	-um	.	8B/J	.	.	.	8r	.	8r	.	.
.	.	.	24d\	.	.	.	.	24dd\	.	.	.	.	.	.	.	.	.	.	.	.	.	.	.	.	.	.	.	.	.	.	.
.	.	.	24d\JJ	.	.	.	.	24dd\JJ	.	.	.	.	.	.	.	.	.	.	.	.	.	.	.	.	.	.	.	.	.	.	.
*	*	*	*Xtremolo	*	*	*	*	*	*	*	*	*	*	*	*	*	*	*	*	*	*	*	*	*	*	*	*	*	*	*	*
!	!	!	!	!	!	!	!	!	!	!LO:LB:g=original	!	!	!	!	!	!	!	!	!	!	!	!	!	!	!	!	!	!	!	!	!
=53	=53	=53	=53	=53	=53	=53	=53	=53	=53	=53	=53	=53	=53	=53	=53	=53	=53	=53	=53	=53	=53	=53	=53	=53	=53	=53	=53	=53	=53	=53	=53
*	*	*	*	*	*	*tuplet	*	*	*	*	*	*	*	*	*	*	*	*	*	*	*	*	*	*	*	*	*	*	*	*	*
*	*	*	*	*	*	*Xbrackettup	*	*	*	*	*	*	*	*	*	*	*	*	*	*	*	*	*	*	*	*	*	*	*	*	*
!	!	!	!	!	!	!LO:TUP:a:r=8:problem=klamra łukowa, kropka zamiast numeru	!	!	!	!	!	!	!	!	!	!	!	!	!	!	!	!	!	!	!	!	!	!	!	!	!
8F#\L	5	.	16a\LL	.	2ryy	24ff#\LL	.	24ccc\LL	.	8D\L	de-	Lu-	4d\	de-	Lu-	8a\L	de-	lu-	8cc\L	de-	lu-	2ryy	8d/L	.	8a\L	.	8a\L	.	(8ff#\L	.	2ryy
.	.	.	.	.	.	24dd\	.	24dd\	.	.	.	.	.	.	.	.	.	.	.	.	.	.	.	.	.	.	.	.	.	.	.
.	.	.	16d\	.	.	.	.	.	.	.	.	.	.	.	.	.	.	.	.	.	.	.	.	.	.	.	.	.	.	.	.
.	.	.	.	.	.	24dd\	.	24dd\JJ	.	.	.	.	.	.	.	.	.	.	.	.	.	.	.	.	.	.	.	.	.	.	.
!	!	!	!	!	!	!LO:TUP:a:problem=klamra łukowa, kropka zamiast numeru	!	!	!	!	!	!	!	!	!	!	!	!	!	!	!	!	!	!	!	!	!	!	!	!	!
8G\	.	.	16b\	.	.	24gg\	.	24bb\LL	.	8G\J	.	.	.	.	.	8g\J	.	.	8b\J	.	.	.	8g/	.	8b\	.	8b\	.	8gg\	.	.
.	.	.	.	.	.	24dd\	.	24dd\	.	.	.	.	.	.	.	.	.	.	.	.	.	.	.	.	.	.	.	.	.	.	.
.	.	.	16d\JJ	.	.	.	.	.	.	.	.	.	.	.	.	.	.	.	.	.	.	.	.	.	.	.	.	.	.	.	.
.	.	.	.	.	.	24dd\JJ	.	24dd\JJ	.	.	.	.	.	.	.	.	.	.	.	.	.	.	.	.	.	.	.	.	.	.	.
!	!	!	!	!	!	!LO:TUP:a:r=8:problem=klamra łukowa, kropka zamiast numeru	!	!	!	!	!	!	!	!	!	!	!	!	!	!	!	!	!	!	!	!	!	!	!	!	!
8D\	.	.	16cc\LL	.	.	24aa\LL	.	24ff#\LL	.	8F#\	-vo-	-men	8d\	-vo-	-men	8f#\	-vo-	-men	8a\	-vo-	-men	.	8d/	.	8a\	.	8cc\	.	8aa\	.	.
.	.	.	.	.	.	24dd\	.	24dd\	.	.	.	.	.	.	.	.	.	.	.	.	.	.	.	.	.	.	.	.	.	.	.
.	.	.	16d\	.	.	.	.	.	.	.	.	.	.	.	.	.	.	.	.	.	.	.	.	.	.	.	.	.	.	.	.
.	.	.	.	.	.	24dd\	.	24dd\JJ	.	.	.	.	.	.	.	.	.	.	.	.	.	.	.	.	.	.	.	.	.	.	.
!	!	!	!	!	!	!LO:TUP:a:problem=klamra łukowa, kropka zamiast numeru	!	!	!	!	!	!	!	!	!	!	!	!	!	!	!	!	!	!	!	!	!	!	!	!	!
8GG\J	.	.	16b\	.	.	24gg\	.	24gg\LL	.	8G\	-ti-	coe-	8d\	-ti-	coe-	8g\	-ti-	coe-	8b\	-ti-	coe-	.	8G/J	.	8g\J	.	8b\J	.	8gg\J)	.	.
.	.	.	.	.	.	24dd\	.	24dd\	.	.	.	.	.	.	.	.	.	.	.	.	.	.	.	.	.	.	.	.	.	.	.
.	.	.	16d\JJ	.	.	.	.	.	.	.	.	.	.	.	.	.	.	.	.	.	.	.	.	.	.	.	.	.	.	.	.
.	.	.	.	.	.	24dd\JJ	.	24dd\JJ	.	.	.	.	.	.	.	.	.	.	.	.	.	.	.	.	.	.	.	.	.	.	.
!LO:LB:g=original	!	!	!	!	!	!	!	!	!	!	!	!	!	!	!	!LO:LB:g=original	!	!	!	!	!	!	!	!	!	!	!	!	!	!	!
=54	=54	=54	=54	=54	=54	=54	=54	=54	=54	=54	=54	=54	=54	=54	=54	=54	=54	=54	=54	=54	=54	=54	=54	=54	=54	=54	=54	=54	=54	=54	=54
!	!	!	!	!	!	!LO:TUP:a:r=8:problem=klamra łukowa, kropka zamiast numeru	!	!	!	!	!	!	!	!	!	!	!	!	!	!	!	!	!	!	!	!	!	!	!	!	!
8F#\L	5	.	16a\LL	.	2ryy	24ff#\LL	.	24ccc\LL	.	8D\L	-o-	-co-	4.d\	-o-	-co-	8a\L	-o-	-co-	8cc\L	-o-	-co-	2ryy	8d/L	.	8a\L	.	8cc\L	.	(8aa\L	.	2ryy
.	.	.	.	.	.	24dd\	.	24dd\	.	.	.	.	.	.	.	.	.	.	.	.	.	.	.	.	.	.	.	.	.	.	.
.	.	.	16d\	.	.	.	.	.	.	.	.	.	.	.	.	.	.	.	.	.	.	.	.	.	.	.	.	.	.	.	.
.	.	.	.	.	.	24dd\	.	24dd\JJ	.	.	.	.	.	.	.	.	.	.	.	.	.	.	.	.	.	.	.	.	.	.	.
!	!	!	!	!	!	!LO:TUP:a:problem=klamra łukowa, kropka zamiast numeru	!	!	!	!	!	!	!	!	!	!	!	!	!	!	!	!	!	!	!	!	!	!	!	!	!
8G\J	.	.	16b\	.	.	24gg\	.	24bb\LL	.	8G\	.	.	.	.	.	8g\	.	.	8b\	.	.	.	8g/	.	8b\	.	8b\	.	8gg\	.	.
.	.	.	.	.	.	24dd\	.	24dd\	.	.	.	.	.	.	.	.	.	.	.	.	.	.	.	.	.	.	.	.	.	.	.
.	.	.	16d\JJ	.	.	.	.	.	.	.	.	.	.	.	.	.	.	.	.	.	.	.	.	.	.	.	.	.	.	.	.
.	.	.	.	.	.	24dd\JJ	.	24dd\JJ	.	.	.	.	.	.	.	.	.	.	.	.	.	.	.	.	.	.	.	.	.	.	.
!	!	!	!	!	!	!LO:LB:g=original	!	!	!	!	!	!	!	!	!	!	!	!	!	!	!	!	!	!	!	!	!	!	!	!	!
!	!	!	!	!	!	!LO:TUP:a:r=8:problem=klamra łukowa, kropka zamiast numeru	!	!	!	!	!	!	!	!	!	!	!	!	!	!	!	!	!	!	!	!	!	!	!	!	!
8D/L	.	.	16cc\LL	.	.	24aa\LL	.	24ff#\LL	.	8F#\J	.	.	.	.	.	8f#\J	.	.	8a\J	.	.	.	8d/	.	8a\	.	8a\	.	8ff#\	.	.
.	.	.	.	.	.	24dd\	.	24dd\	.	.	.	.	.	.	.	.	.	.	.	.	.	.	.	.	.	.	.	.	.	.	.
.	.	.	16d\	.	.	.	.	.	.	.	.	.	.	.	.	.	.	.	.	.	.	.	.	.	.	.	.	.	.	.	.
.	.	.	.	.	.	24dd\	.	24dd\JJ	.	.	.	.	.	.	.	.	.	.	.	.	.	.	.	.	.	.	.	.	.	.	.
!	!	!	!	!	!	!LO:TUP:a:problem=klamra łukowa, kropka zamiast numeru	!	!	!	!	!	!	!	!	!	!	!	!	!	!	!	!	!	!	!	!	!	!	!	!	!
8GG/J	.	.	16b\	.	.	24gg\	.	24gg\LL	.	8G\	-nis	-rum	8d\	-nis	-rum	8g\	-nis	-rum	8b\	-nis	-rum	.	8G/J	.	8g\J	.	8b\J	.	8gg\J)	.	.
.	.	.	.	.	.	24dd\	.	24dd\	.	.	.	.	.	.	.	.	.	.	.	.	.	.	.	.	.	.	.	.	.	.	.
.	.	.	16d\JJ	.	.	.	.	.	.	.	.	.	.	.	.	.	.	.	.	.	.	.	.	.	.	.	.	.	.	.	.
.	.	.	.	.	.	24dd\JJ	.	24dd\JJ	.	.	.	.	.	.	.	.	.	.	.	.	.	.	.	.	.	.	.	.	.	.	.
!	!	!	!LO:LB:g=original	!	!	!	!	!	!	!	!	!	!	!	!	!	!	!	!	!	!	!	!	!	!	!	!	!	!	!	!
=55	=55	=55	=55	=55	=55	=55	=55	=55	=55	=55	=55	=55	=55	=55	=55	=55	=55	=55	=55	=55	=55	=55	=55	=55	=55	=55	=55	=55	=55	=55	=55
!LO:TX:t=P:problem=mixed beam	!	!	!	!	!	!LO:TUP:a:problem=klamra łukowa, kropka zamiast numeru	!	!	!	!	!	!	!	!	!	!	!	!	!	!	!	!	!	!	!	!	!	!	!	!	!
8D\L	7 5	.	16a\LL	.	2ryy	24ff#\LL	.	24ccc\LL	.	8F#\L	o-	.	4d\	o-	.	8a\L	o-	.	8cc\L	o-	.	2ryy	8d\L	.	8a\L	.	8cc\L	.	(8aa\L	.	2ryy
.	.	.	.	.	.	24dd\	.	24dd\	.	.	.	.	.	.	.	.	.	.	.	.	.	.	.	.	.	.	.	.	.	.	.
.	.	.	16d\	.	.	.	.	.	.	.	.	.	.	.	.	.	.	.	.	.	.	.	.	.	.	.	.	.	.	.	.
.	.	.	.	.	.	24dd\JJ	.	24dd\JJ	.	.	.	.	.	.	.	.	.	.	.	.	.	.	.	.	.	.	.	.	.	.	.
!	!	!	!	!	!	!LO:TUP:a:problem=klamra łukowa, kropka zamiast numeru	!	!	!	!	!	!	!	!	!	!	!	!	!	!	!	!	!	!	!	!	!	!	!	!	!
8GG/J	3	.	16g\	.	.	24gg\LL	.	24bb\LL	.	8G\J	.	.	.	.	.	8g\J	.	.	8b\J	.	.	.	8g\	.	8b\	.	8b\	.	8gg\	.	.
.	.	.	.	.	.	24dd\	.	24dd\	.	.	.	.	.	.	.	.	.	.	.	.	.	.	.	.	.	.	.	.	.	.	.
.	.	.	16d\JJ	.	.	.	.	.	.	.	.	.	.	.	.	.	.	.	.	.	.	.	.	.	.	.	.	.	.	.	.
.	.	.	.	.	.	24dd\JJ	.	24dd\JJ	.	.	.	.	.	.	.	.	.	.	.	.	.	.	.	.	.	.	.	.	.	.	.
!LO:TX:t=P:problem=mixed beam	!	!	!	!	!	!LO:TUP:a:problem=klamra łukowa, kropka zamiast numeru	!	!	!	!	!	!	!	!	!	!	!	!	!	!	!	!	!	!	!	!	!	!	!	!	!
8D\L	7 5	.	16a\LL	.	.	24ff#\LL	.	24ccc\LL	.	8F#\L	-ra	.	4d\	-ra	.	8a\L	-ra	.	8cc\L	-ra	.	.	8d\	.	8a\	.	8cc\	.	8aa\	.	.
.	.	.	.	.	.	24dd\	.	24dd\	.	.	.	.	.	.	.	.	.	.	.	.	.	.	.	.	.	.	.	.	.	.	.
.	.	.	16d\	.	.	.	.	.	.	.	.	.	.	.	.	.	.	.	.	.	.	.	.	.	.	.	.	.	.	.	.
.	.	.	.	.	.	24dd\JJ	.	24dd\JJ	.	.	.	.	.	.	.	.	.	.	.	.	.	.	.	.	.	.	.	.	.	.	.
!	!	!	!	!	!	!LO:TUP:a:problem=klamra łukowa, kropka zamiast numeru	!	!	!	!	!	!	!	!	!	!	!	!	!	!	!	!	!	!	!	!	!	!	!	!	!
8GG/J	3	.	16g\	.	.	24gg\LL	.	24bb\LL	.	8G\J	.	.	.	.	.	8g\J	.	.	8b\J	.	.	.	8g\J	.	8b\J	.	8b\J	.	8gg\J)	.	.
.	.	.	.	.	.	24dd\	.	24dd\	.	.	.	.	.	.	.	.	.	.	.	.	.	.	.	.	.	.	.	.	.	.	.
.	.	.	16d\JJ	.	.	.	.	.	.	.	.	.	.	.	.	.	.	.	.	.	.	.	.	.	.	.	.	.	.	.	.
.	.	.	.	.	.	24dd\JJ	.	24dd\JJ	.	.	.	.	.	.	.	.	.	.	.	.	.	.	.	.	.	.	.	.	.	.	.
!	!	!	!	!	!	!	!	!LO:LB:g=original	!	!	!	!	!	!	!	!	!	!	!	!	!	!	!	!	!	!	!LO:LB:g=original	!	!	!	!
=56	=56	=56	=56	=56	=56	=56	=56	=56	=56	=56	=56	=56	=56	=56	=56	=56	=56	=56	=56	=56	=56	=56	=56	=56	=56	=56	=56	=56	=56	=56	=56
8C/L	.	.	8e\L	.	2ryy	8cc\L	.	8aa\L	.	8c\L	pro	.	8c\L	pro	.	4e\	pro	.	8a\L	pro	.	2ryy	8d/	.	8a\	.	8cc\L	.	8aa\L	.	2ryy
*	*	*	*	*	*	*	*	*tuplet	*	*	*	*	*	*	*	*	*	*	*	*	*	*	*	*	*	*	*	*	*	*	*
!	!	!	!	!	!	!LO:TUP:a:problem=klamra łukowa, kropka zamiast numeru	!	!LO:TUP:a:problem=klamra łukowa, kropka zamiast numeru	!	!	!	!	!LO:TUP:a:problem=klamra łukowa, kropka zamiast numeru	!	!	!	!	!	!LO:TUP:a:problem=klamra łukowa, kropka zamiast numeru	!	!	!	!	!	!	!	!LO:TUP:a:problem=klamra łukowa, kropka zamiast numeru	!	!LO:TUP:a:problem=klamra łukowa, łuczek zamiast numeru	!	!
8AA/	.	.	8e\	.	.	24ee\L	.	24ccc\L	.	8A\J	.	.	24e\L	.	.	.	.	.	24cc\L	.	.	.	8r	.	8r	.	24ee\L	.	24ccc\L	.	.
.	.	.	.	.	.	24dd\	.	24bb\	.	.	.	.	24d\	.	.	.	.	.	24b\	.	.	.	.	.	.	.	24dd\	.	24bb\	.	.
.	.	.	.	.	.	24cc\JJ	.	24aa\JJ	.	.	.	.	24c\JJ	.	.	.	.	.	24a\JJ	.	.	.	.	.	.	.	24cc\JJ	.	24aa\JJ	.	.
8D/	4	.	8d\	.	.	8b\L	.	8gg\L	.	8d\L	no-	.	8B\L	no-	.	4d\	no-	.	8g/L	no-	.	.	8g/L	.	8b\L	.	8b\L	.	8gg\L	.	.
8DD/J	3	.	8d\J	.	.	8a\J	.	8ff#\J	.	8D\J	.	.	8A\J	.	.	.	.	.	8f#/J	.	.	.	8d/J	.	8a\J	.	8a\J	.	8ff#\J	.	.
=57	=57	=57	=57	=57	=57	=57	=57	=57	=57	=57	=57	=57	=57	=57	=57	=57	=57	=57	=57	=57	=57	=57	=57	=57	=57	=57	=57	=57	=57	=57	=57
*	*	*	*	*	*	*^	*	*^	*	*	*	*	*	*	*	*	*	*	*	*	*	*	*	*	*	*	*	*	*	*	*
!	!	!	!	!	!	!	!	!	!	!	!	!	!	!	!	!	!	!	!	!	!	!	!	!	!LO:TX:a:t=Solo	!	!LO:TX:a:t=Solo	!	!LO:TX:a:t=Solo	!	!	!	!
4GG/	.	.	4d\	.	2ryy	4b\	4ryy	.	4gg\	4ryy	.	4G\	-bis	.	4G\	-bis	.	4d\	-bis	.	4g\	-bis	.	2ryy	8B/	.	8g\	.	4b\	.	4gg\	.	2ryy
.	.	.	.	.	.	.	.	.	.	.	.	.	.	.	.	.	.	.	.	.	.	.	.	.	8r	.	8r	.	.	.	.	.	.
*	*	*	*	*	*	*	*cue	*	*cue	*	*	*	*	*	*	*	*	*	*	*	*	*	*	*	*	*	*	*	*	*	*	*	*
!	!	!	!	!	!	!	!	!	!	!	!	!	!	!	!	!	!	!	!	!	!	!	!	!	!	!	!	!	!	!	!LO:TX:a:t=Solo	!	!
4r	.	.	8d\L	.	.	4r	8a\L	.	8ff#/L	4r	.	4r	.	.	4r	.	.	4r	.	.	4r	.	.	.	8d/L	.	8a\L	.	8a\L	.	8ff#'\L	.	.
.	.	.	8d\J	.	.	.	8a\J	.	8ff#/J	.	.	.	.	.	.	.	.	.	.	.	.	.	.	.	8d/J	.	8a\J	.	8a\J	.	8ff#'\J	.	.
!	!	!	!	!	!	!	!	!	!	!	!	!	!	!	!	!	!	!	!	!	!	!	!	!	!	!	!	!	!	!	!LO:LB:g=original	!	!
=58	=58	=58	=58	=58	=58	=58	=58	=58	=58	=58	=58	=58	=58	=58	=58	=58	=58	=58	=58	=58	=58	=58	=58	=58	=58	=58	=58	=58	=58	=58	=58	=58	=58
2r	.	.	8G/	.	2ryy	2r	8b\	.	8gg/	2r	.	2r	.	.	2r	.	.	2r	.	.	2r	.	.	2ryy	8g\	.	8b\	.	8b\	.	8gg\|	.	2ryy
.	.	.	8r	.	.	.	8r	.	8r	.	.	.	.	.	.	.	.	.	.	.	.	.	.	.	8r	.	8r	.	8r	.	8r	.	.
.	.	.	8d\L	.	.	.	8a\L	.	8ff#/L	.	.	.	.	.	.	.	.	.	.	.	.	.	.	.	8d/L	.	8a\L	.	8a\L	.	8ff#\L|	.	.
.	.	.	8d\J	.	.	.	8a\J	.	8ff#/J	.	.	.	.	.	.	.	.	.	.	.	.	.	.	.	8d/J	.	8a\J	.	8a\J	.	8ff#\J|	.	.
=59	=59	=59	=59	=59	=59	=59	=59	=59	=59	=59	=59	=59	=59	=59	=59	=59	=59	=59	=59	=59	=59	=59	=59	=59	=59	=59	=59	=59	=59	=59	=59	=59	=59
4r	.	.	8G/	.	2ryy	4r	8b\	.	8gg/	4r	.	4r	.	.	4r	.	.	4r	.	.	4r	.	.	2ryy	8g\	.	8b\	.	8b\	.	8gg\|	.	2ryy
.	.	.	8r	.	.	.	8r	.	8rgg	.	.	.	.	.	.	.	.	.	.	.	.	.	.	.	8r	.	8r	.	8r	.	8r	.	.
*	*	*	*	*	*	*	*Xcue	*	*Xcue	*	*	*	*	*	*	*	*	*	*	*	*	*	*	*	*	*	*	*	*	*	*	*	*
!	!	!	!	!	!	!	!	!LO:DY:t=for	!	!	!LO:DY:t=for	!	!	!	!	!	!	!	!	!	!	!	!	!	!	!	!	!	!	!	!	!	!
8D\L	.	.	8d\L	.	.	8ff#\L|	4ryy	f	8ccc\L	4ryy	f	8D\L	o-	.	4d\	o-	.	4a\	o-	.	4cc\	o-	.	.	8d/L	.	8a\L	.	8a\L	.	8ff#\L|	.	.
8F#\J	.	.	8d\J	.	.	8ff#\J|	.	.	8ccc\J	.	.	8F#\J	.	.	.	.	.	.	.	.	.	.	.	.	8d/J	.	8a\J	.	8a\J	.	8ff#\J|	.	.
*	*	*	*	*	*	*v	*v	*	*	*	*	*	*	*	*	*	*	*	*	*	*	*	*	*	*	*	*	*	*	*	*	*	*
*	*	*	*	*	*	*	*	*v	*v	*	*	*	*	*	*	*	*	*	*	*	*	*	*	*	*	*	*	*	*	*	*	*
!	!	!	!	!	!	!	!	!	!	!	!	!	!	!	!	!	!	!	!LO:LB:g=original	!	!	!	!	!	!	!	!	!	!	!	!
=60	=60	=60	=60	=60	=60	=60	=60	=60	=60	=60	=60	=60	=60	=60	=60	=60	=60	=60	=60	=60	=60	=60	=60	=60	=60	=60	=60	=60	=60	=60	=60
!LO:TX:t=P:problem=mixed beam	!	!	!	!LO:DY:rj:t=fortiſ&colon;	!	!	!	!	!	!	!	!	!	!	!	!	!	!	!	!	!	!	!	!	!	!	!	!	!	!	!
8G\L	.	.	8g\L	ff	2ryy	8gg\L	.	16bb\LL	.	8G\	-ra	.	8d\	-ra	.	8g\	-ra	.	8b\	-ra	.	2ryy	8g\	.	8b\	.	8b\L	.	8gg\L	.	2ryy
.	.	.	.	.	.	.	.	(16gg\	.	.	.	.	.	.	.	.	.	.	.	.	.	.	.	.	.	.	.	.	.	.	.
8C\	.	.	8c\J	.	.	16ee\L	.	16ee\	.	8C/	pro	.	8d\	pro	.	8a\	pro	.	8cc\	pro	.	.	8r	.	8r	.	8cc\	.	16ee\L	.	.
.	.	.	.	.	.	(16cc\JJ	.	16aa\JJ)	.	.	.	.	.	.	.	.	.	.	.	.	.	.	.	.	.	.	.	.	16aa\JJ	.	.
8D\	.	.	8d\L	.	.	8b\L	.	8gg\L	.	4D\	no-	.	4d\	no-	.	8g\	no-	.	8b\L	no-	.	.	8g/L	.	8b\L	.	8b\	.	8gg\L	.	.
8DD/J	.	.	8d\J	.	.	8a\J)	.	8ff#\J	.	.	.	.	.	.	.	8f#\	.	.	8a\J	.	.	.	8d/J	.	8a\J	.	8a\J	.	8ff#\J	.	.
=61	=61	=61	=61	=61	=61	=61	=61	=61	=61	=61	=61	=61	=61	=61	=61	=61	=61	=61	=61	=61	=61	=61	=61	=61	=61	=61	=61	=61	=61	=61	=61
!LO:TX:t=P:problem=mixed beam	!	!	!	!	!	!	!	!	!	!	!	!	!	!	!	!	!	!	!	!	!	!	!	!	!	!	!	!	!	!	!
8GG/L	.	.	8d\L	.	2ryy	8b/L	.	8ggL 8b 8d/	.	4GG/	-bis.	.	4d\	-bis.	.	4g\	-bis.	.	4g\	-bis	.	2ryy	8B/L	.	8g\L	.	8b\L	.	8gg\L	.	2ryy
8D\	.	.	8d\J	.	.	8bJ 8d 8G/	.	8ggJ 8b 8d/	.	.	.	.	.	.	.	.	.	.	.	.	.	.	8G/J	.	8g\J	.	8b\J	.	8gg\J	.	.
8GG/J	.	.	4d 4G\	.	.	4b 4d 4G/	.	4gg 4b 4d/	.	4r	.	.	4r	.	.	4r	.	.	4r	.	.	.	4G/	.	4g\	.	4b\	.	4gg\	.	.
8r	.	.	.	.	.	.	.	.	.	.	.	.	.	.	.	.	.	.	.	.	.	.	.	.	.	.	.	.	.	.	.
==	==	==	==	==	==	==	==	==	==	==	==	==	==	==	==	==	==	==	==	==	==	==	==	==	==	==	==	==	==	==	==
*-	*-	*-	*-	*-	*-	*-	*-	*-	*-	*-	*-	*-	*-	*-	*-	*-	*-	*-	*-	*-	*-	*-	*-	*-	*-	*-	*-	*-	*-	*-	*-
!!!system-decoration: [(g1)][(g2)]<s6>[(g3)][(g4)]s15
!!!RDF**kern: > = above
!!!RDF**kern: < = below
!!!RDF**kern: | = vertical stroke
!!!ENC: Krzysztof Stępień
!!!END: 2020-10-19
!!!ENC: Marta Lawrence
!!!END: 2022-04-10
